;FLAVOR:Marlin
;TIME:4291
;Filament used: 1.34832m
;Layer height: 0.1
;Generated with Cura_SteamEngine master
M140 S60
M105
M190 S60
M104 S230
M105
M109 S230
M82 ;absolute extrusion mode
; Ender 3 Custom Start G-code
G28 ; Home all axes
G92 E0 ; Reset Extruder
G1 Z2.0 F3000 ; Move Z Axis up little to prevent scratching of Heat Bed
G1 X0.1 Y20 Z0.3 F5000.0 ; Move to start position
G1 X0.1 Y200.0 Z0.3 F1500.0 E15 ; Draw the first line
G1 X0.4 Y200.0 Z0.3 F5000.0 ; Move to side a little
G1 X0.4 Y20 Z0.3 F1500.0 E30 ; Draw the second line
G92 E0 ; Reset Extruder
G1 Z2.0 F3000 ; Move Z Axis up little to prevent scratching of Heat Bed
; End of custom start GCode
G92 E0
G1 F2400 E-5
;LAYER_COUNT:419
;LAYER:0
M107
M204 S5000
M205 X30 Y30
G0 F3600 X111.331 Y111.245 Z0.2
M204 S500
M205 X20 Y20
;TYPE:SKIRT
G1 F2400 E0
G1 F1050 X111.784 Y110.83 E0.02043
G1 X112.37 Y110.348 E0.04567
G1 X113.003 Y109.93 E0.0709
G1 X113.677 Y109.581 E0.09614
G1 X114.213 Y109.363 E0.11539
G1 X114.867 Y109.128 E0.1385
G1 X115.594 Y108.91 E0.16375
G1 X116.339 Y108.769 E0.18897
G1 X117.442 Y108.705 E0.22571
G1 X117.906 Y108.714 E0.24115
G1 X118.662 Y108.769 E0.26636
G1 X119.409 Y108.903 E0.2916
G1 X120.187 Y109.132 E0.31858
G1 X120.708 Y109.318 E0.33698
G1 X121.408 Y109.611 E0.36222
G1 X122.073 Y109.975 E0.38743
G1 X122.697 Y110.407 E0.41267
G1 X123.073 Y110.72 E0.42894
G1 X123.599 Y111.188 E0.45236
G1 X124.138 Y111.721 E0.47757
G1 X124.619 Y112.309 E0.50284
G1 X125.035 Y112.943 E0.52806
G1 X125.415 Y113.694 E0.55606
G1 X125.68 Y114.303 E0.57815
G1 X125.946 Y115.014 E0.60339
G1 X126.135 Y115.749 E0.62864
G1 X126.246 Y116.499 E0.65385
G1 X126.278 Y117.198 E0.67713
G1 X126.276 Y117.855 E0.69898
G1 X126.234 Y118.612 E0.72419
G1 X126.112 Y119.361 E0.74943
G1 X125.912 Y120.093 E0.77467
G1 X125.766 Y120.495 E0.7889
G1 X125.579 Y120.965 E0.80572
G1 X125.262 Y121.654 E0.83095
G1 X124.874 Y122.306 E0.85618
G1 X124.419 Y122.913 E0.88141
G1 X124.077 Y123.296 E0.89849
G1 X123.54 Y123.854 E0.92425
G1 X122.986 Y124.372 E0.94948
G1 X122.38 Y124.829 E0.97472
G1 X121.73 Y125.22 E0.99995
G1 X120.817 Y125.626 E1.03318
G1 X120.183 Y125.857 E1.05563
G1 X119.457 Y126.079 E1.08088
G1 X118.712 Y126.223 E1.10611
G1 X117.957 Y126.288 E1.13132
G1 X116.859 Y126.241 E1.16787
G1 X116.052 Y126.144 E1.19491
G1 X115.304 Y126.013 E1.22016
G1 X114.575 Y125.805 E1.24538
G1 X113.871 Y125.522 E1.27061
G1 X113.197 Y125.163 E1.29601
G1 X112.747 Y124.892 E1.31348
G1 X112.118 Y124.467 E1.33873
G1 X111.538 Y123.978 E1.36396
G1 X111.012 Y123.431 E1.3892
G1 X110.722 Y123.071 E1.40458
G1 X110.291 Y122.502 E1.42832
G1 X109.865 Y121.874 E1.45356
G1 X109.508 Y121.205 E1.47878
G1 X109.176 Y120.359 E1.50901
G1 X109.067 Y120.02 E1.52085
G1 X108.873 Y119.286 E1.5461
G1 X108.757 Y118.537 E1.57131
G1 X108.722 Y117.72 E1.59851
G1 X108.731 Y117.046 E1.62093
G1 X108.781 Y116.289 E1.64616
G1 X108.91 Y115.541 E1.67141
G1 X109.118 Y114.812 E1.69662
G1 X109.366 Y114.184 E1.71908
G1 X109.631 Y113.596 E1.74053
G1 X109.979 Y112.921 E1.76579
G1 X110.395 Y112.287 E1.79101
G1 X110.876 Y111.701 E1.81623
G1 X111.331 Y111.245 E1.83765
M204 S5000
M205 X30 Y30
G0 F3600 X111.602 Y111.54
M204 S500
M205 X20 Y20
G1 F1050 X112.055 Y111.125 E1.85809
G1 X112.624 Y110.657 E1.88259
G1 X113.242 Y110.254 E1.90713
G1 X113.899 Y109.92 E1.93164
G1 X114.349 Y109.74 E1.94776
G1 X115.003 Y109.505 E1.97088
G1 X115.709 Y109.293 E1.99539
G1 X116.434 Y109.16 E2.01991
G1 X117.434 Y109.105 E2.05322
G1 X117.898 Y109.114 E2.06866
G1 X118.633 Y109.169 E2.09317
G1 X119.358 Y109.302 E2.11769
G1 X120.052 Y109.509 E2.14177
G1 X120.573 Y109.695 E2.16017
G1 X121.253 Y109.98 E2.1847
G1 X121.898 Y110.337 E2.20922
G1 X122.501 Y110.762 E2.23375
G1 X122.807 Y111.019 E2.24704
G1 X123.333 Y111.487 E2.27046
G1 X123.857 Y112.006 E2.29499
G1 X124.321 Y112.579 E2.31951
G1 X124.72 Y113.199 E2.34404
G1 X125.048 Y113.854 E2.3684
G1 X125.313 Y114.463 E2.39049
G1 X125.57 Y115.154 E2.41501
G1 X125.751 Y115.869 E2.43954
G1 X125.853 Y116.599 E2.46406
G1 X125.878 Y117.197 E2.48397
G1 X125.876 Y117.854 E2.50582
G1 X125.834 Y118.59 E2.53034
G1 X125.712 Y119.317 E2.55485
G1 X125.394 Y120.347 E2.59071
G1 X125.207 Y120.817 E2.60753
G1 X124.898 Y121.486 E2.63204
G1 X124.518 Y122.118 E2.65657
G1 X124.072 Y122.705 E2.68109
G1 X123.789 Y123.018 E2.69512
G1 X123.252 Y123.576 E2.72088
G1 X122.712 Y124.079 E2.74543
G1 X122.122 Y124.52 E2.76993
G1 X121.487 Y124.895 E2.79445
G1 X120.68 Y125.25 E2.82378
G1 X120.046 Y125.481 E2.84622
G1 X119.34 Y125.696 E2.87077
G1 X118.616 Y125.832 E2.89527
G1 X117.881 Y125.89 E2.91979
G1 X116.906 Y125.843 E2.95226
G1 X116.099 Y125.746 E2.97929
G1 X115.373 Y125.619 E3.0038
G1 X114.665 Y125.413 E3.02833
G1 X113.984 Y125.133 E3.05282
G1 X113.403 Y124.82 E3.07477
G1 X112.953 Y124.549 E3.09224
G1 X112.343 Y124.135 E3.11676
G1 X111.781 Y123.658 E3.14128
G1 X111.275 Y123.122 E3.16579
G1 X111.04 Y122.83 E3.17826
G1 X110.609 Y122.261 E3.202
G1 X110.197 Y121.65 E3.22651
G1 X109.853 Y120.998 E3.25103
G1 X109.556 Y120.236 E3.27823
G1 X109.447 Y119.897 E3.29008
G1 X109.26 Y119.184 E3.31459
G1 X109.151 Y118.455 E3.33911
G1 X109.122 Y117.725 E3.36341
G1 X109.131 Y117.051 E3.38583
G1 X109.18 Y116.316 E3.41033
G1 X109.31 Y115.59 E3.43486
G1 X109.517 Y114.882 E3.45939
G1 X109.731 Y114.348 E3.47853
G1 X109.996 Y113.76 E3.49998
G1 X110.334 Y113.105 E3.52449
G1 X110.742 Y112.491 E3.54901
G1 X111.214 Y111.925 E3.57353
G1 X111.602 Y111.54 E3.5917
M204 S5000
M205 X30 Y30
G0 F3600 X111.872 Y111.835
M204 S500
M205 X20 Y20
G1 F1050 X112.325 Y111.42 E3.61214
G1 X112.878 Y110.967 E3.63591
G1 X113.479 Y110.579 E3.65971
G1 X114.119 Y110.26 E3.68349
G1 X114.484 Y110.116 E3.69654
G1 X115.138 Y109.881 E3.71966
G1 X115.823 Y109.677 E3.74343
G1 X116.527 Y109.551 E3.76722
G1 X117.426 Y109.505 E3.79716
G1 X117.89 Y109.514 E3.81259
G1 X118.603 Y109.568 E3.83637
G1 X119.306 Y109.701 E3.86017
G1 X119.918 Y109.886 E3.88144
G1 X120.439 Y110.072 E3.89983
G1 X121.098 Y110.349 E3.92361
G1 X121.722 Y110.699 E3.94741
G1 X122.541 Y111.318 E3.98155
G1 X123.067 Y111.786 E4.00497
G1 X123.574 Y112.29 E4.02875
G1 X124.022 Y112.848 E4.05255
G1 X124.404 Y113.453 E4.07634
G1 X124.681 Y114.013 E4.09712
G1 X124.946 Y114.622 E4.11921
G1 X125.195 Y115.293 E4.14302
G1 X125.367 Y115.987 E4.1668
G1 X125.46 Y116.697 E4.19062
G1 X125.478 Y117.195 E4.20719
G1 X125.476 Y117.852 E4.22904
G1 X125.434 Y118.567 E4.25286
G1 X125.312 Y119.271 E4.27663
G1 X125.023 Y120.199 E4.30896
G1 X124.836 Y120.669 E4.32578
G1 X124.534 Y121.318 E4.34959
G1 X124.163 Y121.929 E4.37336
G1 X123.5 Y122.741 E4.40823
G1 X122.963 Y123.299 E4.43399
G1 X122.439 Y123.786 E4.45778
G1 X121.864 Y124.211 E4.48156
G1 X121.245 Y124.57 E4.50536
G1 X120.543 Y124.874 E4.53081
G1 X119.909 Y125.105 E4.55325
G1 X119.224 Y125.312 E4.57705
G1 X118.521 Y125.441 E4.60082
G1 X117.807 Y125.491 E4.62463
G1 X116.954 Y125.446 E4.65304
G1 X116.147 Y125.349 E4.68007
G1 X115.443 Y125.224 E4.70385
G1 X114.757 Y125.022 E4.72764
G1 X114.098 Y124.744 E4.75143
G1 X113.609 Y124.478 E4.76994
G1 X113.159 Y124.207 E4.78741
G1 X112.568 Y123.804 E4.81121
G1 X112.026 Y123.338 E4.83498
G1 X111.359 Y122.588 E4.86836
G1 X110.928 Y122.019 E4.8921
G1 X110.529 Y121.426 E4.91588
G1 X110.198 Y120.792 E4.93966
G1 X109.937 Y120.114 E4.96383
G1 X109.828 Y119.775 E4.97567
G1 X109.648 Y119.083 E4.99945
G1 X109.545 Y118.375 E5.02325
G1 X109.522 Y117.731 E5.04468
G1 X109.531 Y117.057 E5.0671
G1 X109.58 Y116.343 E5.09091
G1 X109.709 Y115.639 E5.11471
G1 X109.915 Y114.955 E5.13847
G1 X110.095 Y114.512 E5.15437
G1 X110.36 Y113.924 E5.17583
G1 X110.69 Y113.29 E5.1996
G1 X111.089 Y112.696 E5.2234
G1 X111.551 Y112.15 E5.24719
G1 X111.872 Y111.835 E5.26214
M204 S5000
M205 X30 Y30
G0 F3600 X112.142 Y112.13
M204 S500
M205 X20 Y20
G1 F1050 X112.595 Y111.715 E5.28258
G1 X113.132 Y111.277 E5.30563
G1 X113.715 Y110.905 E5.32863
G1 X114.619 Y110.492 E5.36168
G1 X115.273 Y110.257 E5.3848
G1 X115.937 Y110.061 E5.40783
G1 X116.62 Y109.943 E5.43088
G1 X117.418 Y109.905 E5.45745
G1 X117.882 Y109.914 E5.47289
G1 X118.573 Y109.967 E5.49594
G1 X119.253 Y110.1 E5.51898
G1 X119.783 Y110.262 E5.53741
G1 X120.304 Y110.448 E5.55581
G1 X120.942 Y110.718 E5.57886
G1 X121.544 Y111.06 E5.60188
G1 X122.275 Y111.616 E5.63243
G1 X122.801 Y112.084 E5.65585
G1 X123.291 Y112.574 E5.6789
G1 X123.722 Y113.116 E5.70193
G1 X124.086 Y113.705 E5.72496
G1 X124.315 Y114.173 E5.74229
G1 X124.58 Y114.782 E5.76438
G1 X124.819 Y115.432 E5.78741
G1 X124.982 Y116.105 E5.81044
G1 X125.066 Y116.792 E5.83346
G1 X125.078 Y117.194 E5.84684
G1 X125.076 Y117.851 E5.86869
G1 X125.034 Y118.543 E5.89175
G1 X124.912 Y119.224 E5.91476
G1 X124.651 Y120.051 E5.9436
G1 X124.464 Y120.521 E5.96043
G1 X124.171 Y121.149 E5.98348
G1 X123.808 Y121.738 E6.00649
G1 X123.212 Y122.464 E6.03773
G1 X122.675 Y123.022 E6.06349
G1 X122.167 Y123.492 E6.08651
G1 X121.608 Y123.901 E6.10954
G1 X121.006 Y124.242 E6.13255
G1 X120.406 Y124.498 E6.15425
G1 X119.772 Y124.729 E6.17669
G1 X119.109 Y124.929 E6.19973
G1 X118.427 Y125.05 E6.22276
G1 X117.736 Y125.092 E6.24579
G1 X117.002 Y125.049 E6.27024
G1 X116.195 Y124.952 E6.29728
G1 X115.513 Y124.83 E6.32032
G1 X114.85 Y124.63 E6.34336
G1 X114.215 Y124.355 E6.36637
G1 X113.816 Y124.135 E6.38153
G1 X113.366 Y123.864 E6.399
G1 X112.794 Y123.473 E6.42204
G1 X112.271 Y123.019 E6.44508
G1 X111.678 Y122.347 E6.47489
G1 X111.247 Y121.778 E6.49863
G1 X110.862 Y121.203 E6.52164
G1 X110.545 Y120.587 E6.54468
G1 X110.318 Y119.992 E6.56587
G1 X110.209 Y119.653 E6.57771
G1 X110.035 Y118.982 E6.60077
G1 X109.94 Y118.296 E6.6238
G1 X109.922 Y117.736 E6.64243
G1 X109.931 Y117.062 E6.66485
G1 X109.98 Y116.371 E6.68789
G1 X110.108 Y115.691 E6.71091
G1 X110.314 Y115.029 E6.73397
G1 X110.46 Y114.677 E6.74664
G1 X110.725 Y114.089 E6.76809
G1 X111.045 Y113.475 E6.79112
G1 X111.434 Y112.902 E6.81416
G1 X111.887 Y112.378 E6.8372
G1 X112.142 Y112.13 E6.84903
M204 S5000
M205 X30 Y30
G0 F3600 X112.412 Y112.425
M204 S500
M205 X20 Y20
G1 F1050 X112.865 Y112.01 E6.86946
G1 X113.385 Y111.588 E6.89173
G1 X113.951 Y111.231 E6.91399
G1 X114.754 Y110.869 E6.94329
G1 X115.408 Y110.634 E6.9664
G1 X116.05 Y110.446 E6.98865
G1 X116.71 Y110.335 E7.01091
G1 X117.411 Y110.305 E7.03425
G1 X117.875 Y110.314 E7.04968
G1 X118.542 Y110.367 E7.07194
G1 X119.197 Y110.499 E7.09416
G1 X119.649 Y110.639 E7.1099
G1 X120.17 Y110.825 E7.1283
G1 X120.785 Y111.087 E7.15053
G1 X121.365 Y111.421 E7.17279
G1 X122.009 Y111.915 E7.19979
G1 X122.535 Y112.383 E7.22321
G1 X123.008 Y112.857 E7.24548
G1 X123.42 Y113.384 E7.26773
G1 X123.767 Y113.956 E7.28998
G1 X123.948 Y114.333 E7.30389
G1 X124.213 Y114.942 E7.32598
G1 X124.443 Y115.57 E7.34822
G1 X124.596 Y116.221 E7.37047
G1 X124.678 Y117.193 E7.40291
G1 X124.676 Y117.85 E7.42476
G1 X124.634 Y118.518 E7.44702
G1 X124.513 Y119.176 E7.46927
G1 X124.279 Y119.903 E7.49468
G1 X124.092 Y120.373 E7.5115
G1 X123.808 Y120.979 E7.53376
G1 X123.454 Y121.547 E7.55602
G1 X122.924 Y122.186 E7.58363
G1 X122.387 Y122.744 E7.60939
G1 X121.895 Y123.198 E7.63166
G1 X121.353 Y123.589 E7.65388
G1 X120.767 Y123.913 E7.67616
G1 X120.269 Y124.123 E7.69413
G1 X119.635 Y124.354 E7.71657
G1 X118.994 Y124.545 E7.73882
G1 X118.335 Y124.658 E7.76106
G1 X117.666 Y124.692 E7.78334
G1 X117.05 Y124.652 E7.80387
G1 X116.243 Y124.555 E7.8309
G1 X115.584 Y124.436 E7.85318
G1 X114.945 Y124.239 E7.87542
G1 X114.334 Y123.967 E7.89766
G1 X114.022 Y123.792 E7.90956
G1 X113.572 Y123.521 E7.92703
G1 X113.021 Y123.142 E7.94928
G1 X112.518 Y122.701 E7.97152
G1 X111.997 Y122.105 E7.99785
G1 X111.566 Y121.536 E8.0216
G1 X111.195 Y120.98 E8.04383
G1 X110.892 Y120.383 E8.06609
G1 X110.699 Y119.869 E8.08436
G1 X110.59 Y119.53 E8.0962
G1 X110.423 Y118.882 E8.11846
G1 X110.336 Y118.219 E8.1407
G1 X110.321 Y117.741 E8.1566
G1 X110.33 Y117.067 E8.17902
G1 X110.379 Y116.4 E8.20127
G1 X110.507 Y115.743 E8.22353
G1 X110.825 Y114.841 E8.25534
G1 X111.09 Y114.253 E8.27679
G1 X111.4 Y113.661 E8.29902
G1 X111.78 Y113.109 E8.32131
G1 X112.412 Y112.425 E8.35228
M204 S5000
M205 X30 Y30
G0 F3600 X112.682 Y112.72
M204 S500
M205 X20 Y20
G1 F1050 X113.135 Y112.305 E8.37271
G1 X113.637 Y111.9 E8.39417
G1 X114.185 Y111.56 E8.41562
G1 X114.89 Y111.245 E8.4413
G1 X115.544 Y111.01 E8.46441
G1 X116.163 Y110.83 E8.48585
G1 X116.799 Y110.728 E8.50728
G1 X117.403 Y110.705 E8.52738
G1 X117.867 Y110.714 E8.54282
G1 X118.509 Y110.766 E8.56424
G1 X119.14 Y110.898 E8.58568
G1 X119.514 Y111.016 E8.59872
G1 X120.035 Y111.202 E8.61712
G1 X120.628 Y111.456 E8.63858
G1 X121.184 Y111.781 E8.66
G1 X121.744 Y112.214 E8.68355
G1 X122.27 Y112.682 E8.70696
G1 X122.724 Y113.14 E8.72841
G1 X123.118 Y113.65 E8.74985
G1 X123.581 Y114.492 E8.78181
G1 X123.846 Y115.101 E8.8039
G1 X124.066 Y115.707 E8.82534
G1 X124.21 Y116.336 E8.8468
G1 X124.278 Y117.192 E8.87536
G1 X124.276 Y117.849 E8.89721
G1 X124.234 Y118.492 E8.91865
G1 X124.113 Y119.125 E8.94008
G1 X123.908 Y119.755 E8.96212
G1 X123.721 Y120.225 E8.97894
G1 X123.446 Y120.808 E9.00038
G1 X123.101 Y121.353 E9.02183
G1 X122.636 Y121.909 E9.04594
G1 X122.099 Y122.467 E9.0717
G1 X121.624 Y122.903 E9.09314
G1 X121.099 Y123.276 E9.11456
G1 X120.531 Y123.582 E9.13602
G1 X120.132 Y123.747 E9.15038
G1 X119.498 Y123.978 E9.17282
G1 X118.88 Y124.161 E9.19426
G1 X118.244 Y124.265 E9.2157
G1 X117.6 Y124.291 E9.23713
G1 X117.097 Y124.255 E9.25391
G1 X116.29 Y124.158 E9.28094
G1 X115.656 Y124.041 E9.30238
G1 X115.042 Y123.847 E9.3238
G1 X114.228 Y123.45 E9.35392
G1 X113.778 Y123.179 E9.37139
G1 X113.248 Y122.812 E9.39284
G1 X112.767 Y122.383 E9.41427
G1 X112.316 Y121.864 E9.43714
G1 X111.885 Y121.295 E9.46088
G1 X111.528 Y120.758 E9.48233
G1 X111.241 Y120.181 E9.50376
G1 X111.08 Y119.747 E9.51916
G1 X110.971 Y119.408 E9.531
G1 X110.812 Y118.783 E9.55245
G1 X110.731 Y118.143 E9.57391
G1 X110.721 Y117.747 E9.58708
G1 X110.73 Y117.073 E9.6095
G1 X110.779 Y116.43 E9.63095
G1 X110.907 Y115.798 E9.6524
G1 X111.189 Y115.005 E9.68039
G1 X111.454 Y114.417 E9.70184
G1 X111.755 Y113.847 E9.72328
G1 X112.124 Y113.319 E9.74471
G1 X112.682 Y112.72 E9.77194
M204 S5000
M205 X30 Y30
G1 F2400 E4.77194
;MESH:snowman.stl
G0 F3600 X115.882 Y115.895
G0 X116.83 Y116.76
G0 X117.784 Y116.628
G0 X117.815 Y116.533
M204 S500
M205 X20 Y20
;TYPE:WALL-INNER
G1 F2400 E9.77194
G1 F1050 X118.012 Y116.621 E9.77911
G1 X118.182 Y116.743 E9.78607
G1 X118.322 Y116.898 E9.79302
G1 X118.428 Y117.084 E9.80014
G1 X118.496 Y117.289 E9.80732
G1 X118.518 Y117.5 E9.81438
G1 X118.496 Y117.711 E9.82143
G1 X118.429 Y117.913 E9.82851
G1 X118.322 Y118.1 E9.83568
G1 X118.183 Y118.254 E9.84258
G1 X118.007 Y118.381 E9.8498
G1 X117.81 Y118.47 E9.85699
G1 X117.608 Y118.512 E9.86385
G1 X117.392 Y118.512 E9.87103
G1 X117.188 Y118.469 E9.87797
G1 X116.988 Y118.38 E9.88525
G1 X116.818 Y118.257 E9.89223
G1 X116.678 Y118.102 E9.89918
G1 X116.572 Y117.916 E9.9063
G1 X116.504 Y117.711 E9.91348
G1 X116.482 Y117.5 E9.92054
G1 X116.504 Y117.289 E9.92759
G1 X116.571 Y117.087 E9.93467
G1 X116.678 Y116.9 E9.94184
G1 X116.817 Y116.746 E9.94874
G1 X116.993 Y116.619 E9.95595
G1 X117.19 Y116.53 E9.96314
G1 X117.393 Y116.488 E9.97004
G1 X117.604 Y116.487 E9.97706
G1 X117.815 Y116.533 E9.98424
M204 S5000
M205 X30 Y30
G0 F3600 X117.938 Y116.15
M204 S500
M205 X20 Y20
;TYPE:WALL-OUTER
G1 F1050 X118.212 Y116.272 E9.99422
G1 X118.452 Y116.445 E10.00406
G1 X118.648 Y116.662 E10.01378
G1 X118.796 Y116.923 E10.02376
G1 X118.889 Y117.204 E10.03361
G1 X118.92 Y117.5 E10.0435
G1 X118.889 Y117.796 E10.0534
G1 X118.796 Y118.077 E10.06325
G1 X118.649 Y118.335 E10.07312
G1 X118.45 Y118.554 E10.08297
G1 X118.209 Y118.729 E10.09287
G1 X117.937 Y118.851 E10.10279
G1 X117.647 Y118.912 E10.11264
G1 X117.353 Y118.912 E10.12242
G1 X117.063 Y118.851 E10.13228
G1 X116.788 Y118.728 E10.1423
G1 X116.548 Y118.555 E10.15214
G1 X116.352 Y118.338 E10.16186
G1 X116.204 Y118.077 E10.17184
G1 X116.111 Y117.796 E10.18169
G1 X116.08 Y117.5 E10.19159
G1 X116.111 Y117.204 E10.20149
G1 X116.204 Y116.923 E10.21133
G1 X116.351 Y116.665 E10.22121
G1 X116.55 Y116.446 E10.23105
G1 X116.791 Y116.271 E10.24095
G1 X117.063 Y116.149 E10.25087
G1 X117.353 Y116.088 E10.26073
G1 X117.647 Y116.087 E10.2705
