;FLAVOR:Marlin
;TIME:3168
;Filament used: 1.31344m
;Layer height: 0.1
;MINX:99.758
;MINY:99.806
;MINZ:0.2
;MAXX:135.242
;MAXY:135.194
;MAXZ:41.8
;Generated with Cura_SteamEngine master
M140 S60
M105
M190 S60
M104 S230
M105
M109 S230
M82 ;absolute extrusion mode
; Ender 3 Custom Start G-code
G28 ; Home all axes
G92 E0 ; Reset Extruder
G1 Z2.0 F3000 ; Move Z Axis up little to prevent scratching of Heat Bed
G1 X0.1 Y20 Z0.3 F5000.0 ; Move to start position
G1 X0.1 Y200.0 Z0.3 F1500.0 E15 ; Draw the first line
G1 X0.4 Y200.0 Z0.3 F5000.0 ; Move to side a little
G1 X0.4 Y20 Z0.3 F1500.0 E30 ; Draw the second line
G92 E0 ; Reset Extruder
G1 Z2.0 F3000 ; Move Z Axis up little to prevent scratching of Heat Bed
; End of custom start GCode
G92 E0
G92 E0
G1 F2400 E-5
;LAYER_COUNT:419
;LAYER:0
M107
M204 S500
M205 X10 Y10
G0 F3600 X105.029 Y104.907 Z0.2
;TYPE:SKIRT
G1 F2400 E0
G1 F1050 X105.586 Y104.347 E0.02627
G1 X106.242 Y103.812 E0.05442
G1 X107.881 Y102.618 E0.12187
G1 X108.542 Y102.185 E0.14815
G1 X109.251 Y101.819 E0.17469
G1 X111.135 Y100.964 E0.2435
G1 X111.869 Y100.675 E0.26974
G1 X112.684 Y100.449 E0.29787
G1 X114.718 Y100.002 E0.36714
G1 X115.497 Y99.872 E0.3934
G1 X116.341 Y99.82 E0.42153
G1 X118.473 Y99.806 E0.49244
G1 X119.262 Y99.841 E0.51871
G1 X120.138 Y99.975 E0.54818
G1 X122.181 Y100.407 E0.61764
G1 X122.944 Y100.609 E0.64389
G1 X123.734 Y100.91 E0.67201
G1 X125.629 Y101.752 E0.74098
G1 X126.334 Y102.109 E0.76726
G1 X127.038 Y102.563 E0.79512
G1 X128.725 Y103.785 E0.8644
G1 X129.34 Y104.28 E0.89066
G1 X129.936 Y104.872 E0.9186
G1 X131.29 Y106.37 E0.98576
G1 X131.789 Y106.982 E1.01203
G1 X132.232 Y107.656 E1.03885
G1 X133.287 Y109.456 E1.10825
G1 X133.652 Y110.156 E1.1345
G1 X133.961 Y110.944 E1.16265
G1 X134.612 Y112.906 E1.23141
G1 X134.823 Y113.667 E1.25768
G1 X134.96 Y114.487 E1.28533
G1 X135.193 Y116.551 E1.35441
G1 X135.242 Y117.339 E1.38067
G1 X135.204 Y118.19 E1.409
G1 X134.994 Y120.323 E1.48029
G1 X134.877 Y121.104 E1.50656
G1 X134.651 Y121.967 E1.53623
G1 X134.009 Y123.945 E1.6054
G1 X133.728 Y124.683 E1.63166
G1 X133.354 Y125.422 E1.65921
G1 X132.326 Y127.212 E1.72786
G1 X131.898 Y127.876 E1.75414
G1 X131.368 Y128.536 E1.78229
G1 X129.971 Y130.093 E1.85187
G1 X129.414 Y130.653 E1.87814
G1 X128.76 Y131.187 E1.90622
G1 X127.122 Y132.381 E1.97364
G1 X126.461 Y132.813 E1.9999
G1 X125.749 Y133.181 E2.02656
G1 X123.864 Y134.036 E2.0954
G1 X123.129 Y134.326 E2.12168
G1 X122.316 Y134.551 E2.14974
G1 X120.282 Y134.998 E2.219
G1 X119.503 Y135.128 E2.24527
G1 X118.659 Y135.18 E2.2734
G1 X116.527 Y135.194 E2.34431
G1 X115.738 Y135.159 E2.37058
G1 X114.862 Y135.025 E2.40005
G1 X112.819 Y134.593 E2.46951
G1 X112.056 Y134.391 E2.49576
G1 X111.266 Y134.09 E2.52388
G1 X109.371 Y133.248 E2.59284
G1 X108.666 Y132.891 E2.61913
G1 X107.962 Y132.437 E2.64699
G1 X106.275 Y131.215 E2.71627
G1 X105.66 Y130.72 E2.74253
G1 X105.064 Y130.128 E2.77047
G1 X103.71 Y128.63 E2.83763
G1 X103.211 Y128.018 E2.8639
G1 X102.767 Y127.343 E2.89077
G1 X101.712 Y125.542 E2.96019
G1 X101.348 Y124.841 E2.98646
G1 X101.039 Y124.055 E3.01455
G1 X100.388 Y122.093 E3.08331
G1 X100.177 Y121.332 E3.10957
G1 X100.04 Y120.512 E3.13722
G1 X99.807 Y118.447 E3.20634
G1 X99.758 Y117.658 E3.23263
G1 X99.796 Y116.807 E3.26097
G1 X100.006 Y114.675 E3.33222
G1 X100.123 Y113.894 E3.35849
G1 X100.349 Y113.032 E3.38813
G1 X100.991 Y111.054 E3.45729
G1 X101.272 Y110.316 E3.48356
G1 X101.647 Y109.576 E3.51115
G1 X102.675 Y107.787 E3.57978
G1 X103.103 Y107.123 E3.60605
G1 X103.632 Y106.464 E3.63416
G1 X105.029 Y104.907 E3.70373
G0 F3600 X105.327 Y105.174
G1 F1050 X105.87 Y104.629 E3.72932
G1 X106.478 Y104.135 E3.75538
G1 X108.117 Y102.941 E3.82282
G1 X108.761 Y102.521 E3.84839
G1 X109.416 Y102.183 E3.87291
G1 X111.3 Y101.328 E3.94172
G1 X112.016 Y101.047 E3.9673
G1 X112.77 Y100.839 E3.99332
G1 X114.804 Y100.392 E4.06259
G1 X115.562 Y100.267 E4.08814
G1 X116.343 Y100.22 E4.11416
G1 X118.475 Y100.206 E4.18507
G1 X119.244 Y100.241 E4.21068
G1 X120.055 Y100.366 E4.23797
G1 X122.098 Y100.798 E4.30742
G1 X122.841 Y100.996 E4.333
G1 X123.572 Y101.276 E4.35903
G1 X125.467 Y102.118 E4.428
G1 X126.152 Y102.466 E4.45356
G1 X126.803 Y102.887 E4.47934
G1 X128.49 Y104.109 E4.54863
G1 X129.089 Y104.592 E4.57422
G1 X129.639 Y105.14 E4.60004
G1 X130.993 Y106.638 E4.6672
G1 X131.478 Y107.235 E4.69278
G1 X131.887 Y107.858 E4.71757
G1 X132.942 Y109.658 E4.78697
G1 X133.296 Y110.341 E4.81255
G1 X133.581 Y111.07 E4.83859
G1 X134.232 Y113.032 E4.90734
G1 X134.436 Y113.773 E4.9329
G1 X134.562 Y114.532 E4.95849
G1 X134.795 Y116.596 E5.02758
G1 X134.842 Y117.364 E5.05317
G1 X134.806 Y118.151 E5.07937
G1 X134.596 Y120.284 E5.15066
G1 X134.481 Y121.045 E5.17626
G1 X134.271 Y121.844 E5.20374
G1 X133.629 Y123.822 E5.2729
G1 X133.353 Y124.54 E5.29849
G1 X133.007 Y125.222 E5.32392
G1 X131.979 Y127.012 E5.39258
G1 X131.562 Y127.658 E5.41815
G1 X131.07 Y128.269 E5.44424
G1 X129.673 Y129.826 E5.51382
G1 X129.13 Y130.371 E5.53941
G1 X128.524 Y130.864 E5.56539
G1 X126.886 Y132.058 E5.63281
G1 X126.242 Y132.478 E5.65838
G1 X125.584 Y132.817 E5.683
G1 X123.699 Y133.672 E5.75184
G1 X122.983 Y133.953 E5.77742
G1 X122.23 Y134.161 E5.80341
G1 X120.196 Y134.608 E5.87267
G1 X119.438 Y134.733 E5.89822
G1 X118.657 Y134.78 E5.92425
G1 X116.525 Y134.794 E5.99516
G1 X115.756 Y134.759 E6.02076
G1 X114.945 Y134.634 E6.04806
G1 X112.902 Y134.202 E6.11751
G1 X112.159 Y134.004 E6.14308
G1 X111.428 Y133.724 E6.16912
G1 X109.533 Y132.882 E6.23809
G1 X108.848 Y132.534 E6.26364
G1 X108.197 Y132.113 E6.28943
G1 X106.51 Y130.891 E6.35871
G1 X105.911 Y130.408 E6.38431
G1 X105.361 Y129.86 E6.41013
G1 X104.007 Y128.362 E6.47729
G1 X103.522 Y127.765 E6.50287
G1 X103.112 Y127.14 E6.52773
G1 X102.057 Y125.339 E6.59716
G1 X101.703 Y124.656 E6.62274
G1 X101.419 Y123.929 E6.6487
G1 X100.768 Y121.967 E6.71746
G1 X100.564 Y121.226 E6.74302
G1 X100.438 Y120.467 E6.76861
G1 X100.205 Y118.402 E6.83773
G1 X100.158 Y117.634 E6.86332
G1 X100.194 Y116.847 E6.88952
G1 X100.404 Y114.715 E6.96078
G1 X100.519 Y113.954 E6.98637
G1 X100.729 Y113.155 E7.01385
G1 X101.371 Y111.177 E7.08302
G1 X101.647 Y110.459 E7.1086
G1 X101.994 Y109.775 E7.13411
G1 X103.022 Y107.986 E7.20274
G1 X103.439 Y107.34 E7.22831
G1 X103.93 Y106.731 E7.25433
G1 X105.327 Y105.174 E7.32391
G0 F3600 X105.625 Y105.441
G1 F1050 X106.153 Y104.912 E7.34877
G1 X106.713 Y104.458 E7.37274
G1 X108.352 Y103.264 E7.44019
G1 X108.98 Y102.857 E7.46508
G1 X109.581 Y102.548 E7.48756
G1 X111.465 Y101.693 E7.55637
G1 X112.162 Y101.42 E7.58127
G1 X112.856 Y101.23 E7.6052
G1 X114.89 Y100.783 E7.67446
G1 X115.628 Y100.662 E7.69934
G1 X116.346 Y100.62 E7.72326
G1 X118.478 Y100.606 E7.79417
G1 X119.225 Y100.641 E7.81904
G1 X119.972 Y100.757 E7.84419
G1 X122.015 Y101.189 E7.91364
G1 X122.738 Y101.383 E7.93854
G1 X123.409 Y101.641 E7.96245
G1 X125.304 Y102.483 E8.03142
G1 X125.971 Y102.823 E8.05632
G1 X126.568 Y103.211 E8.08
G1 X128.255 Y104.433 E8.14928
G1 X128.837 Y104.904 E8.17418
G1 X129.342 Y105.408 E8.19791
G1 X130.696 Y106.906 E8.26507
G1 X131.167 Y107.487 E8.28995
G1 X131.542 Y108.06 E8.31273
G1 X132.597 Y109.86 E8.38212
G1 X132.94 Y110.525 E8.40701
G1 X133.202 Y111.196 E8.43097
G1 X133.853 Y113.158 E8.49972
G1 X134.05 Y113.879 E8.52458
G1 X134.165 Y114.577 E8.54811
G1 X134.398 Y116.641 E8.61719
G1 X134.442 Y117.388 E8.64208
G1 X134.408 Y118.112 E8.66619
G1 X134.198 Y120.245 E8.73748
G1 X134.085 Y120.984 E8.76234
G1 X133.89 Y121.72 E8.78767
G1 X133.248 Y123.698 E8.85683
G1 X132.979 Y124.396 E8.88171
G1 X132.66 Y125.023 E8.90511
G1 X131.632 Y126.813 E8.97377
G1 X131.225 Y127.441 E8.99866
G1 X130.772 Y128.002 E9.02264
G1 X129.375 Y129.559 E9.09221
G1 X128.847 Y130.088 E9.11707
G1 X128.288 Y130.541 E9.141
G1 X126.65 Y131.735 E9.20842
G1 X126.023 Y132.142 E9.23328
G1 X125.419 Y132.453 E9.25588
G1 X123.534 Y133.308 E9.32472
G1 X122.837 Y133.58 E9.34961
G1 X122.144 Y133.77 E9.37351
G1 X120.11 Y134.217 E9.44277
G1 X119.372 Y134.338 E9.46765
G1 X118.654 Y134.38 E9.49157
G1 X116.522 Y134.394 E9.56248
G1 X115.775 Y134.359 E9.58735
G1 X115.028 Y134.243 E9.6125
G1 X112.985 Y133.811 E9.68195
G1 X112.262 Y133.617 E9.70685
G1 X111.591 Y133.359 E9.73076
G1 X109.696 Y132.517 E9.79973
G1 X109.029 Y132.177 E9.82463
G1 X108.432 Y131.789 E9.84831
G1 X106.745 Y130.567 E9.91759
G1 X106.163 Y130.096 E9.9425
G1 X105.658 Y129.592 E9.96623
G1 X104.304 Y128.094 E10.03339
G1 X103.833 Y127.513 E10.05826
G1 X103.457 Y126.938 E10.08111
G1 X102.402 Y125.137 E10.15053
G1 X102.059 Y124.472 E10.17542
G1 X101.798 Y123.803 E10.19931
G1 X101.147 Y121.841 E10.26806
G1 X100.95 Y121.12 E10.29292
G1 X100.835 Y120.422 E10.31645
G1 X100.602 Y118.357 E10.38557
G1 X100.558 Y117.61 E10.41046
G1 X100.592 Y116.886 E10.43456
G1 X100.802 Y114.754 E10.50582
G1 X100.915 Y114.014 E10.53071
G1 X101.11 Y113.279 E10.55601
G1 X101.752 Y111.301 E10.62517
G1 X102.021 Y110.603 E10.65005
G1 X102.341 Y109.974 E10.67353
G1 X103.369 Y108.185 E10.74215
G1 X103.775 Y107.558 E10.767
G1 X104.228 Y106.998 E10.79095
G1 X105.625 Y105.441 E10.86053
G0 F3600 X105.923 Y105.708
G1 F1050 X106.437 Y105.195 E10.88468
G1 X106.949 Y104.781 E10.90658
G1 X108.588 Y103.587 E10.97403
G1 X109.198 Y103.193 E10.99818
G1 X109.747 Y102.912 E11.01869
G1 X111.631 Y102.057 E11.0875
G1 X112.307 Y101.794 E11.11163
G1 X112.941 Y101.621 E11.13349
G1 X114.975 Y101.174 E11.20275
G1 X115.692 Y101.057 E11.22692
G1 X116.349 Y101.02 E11.2488
G1 X118.481 Y101.006 E11.31972
G1 X119.206 Y101.041 E11.34386
G1 X119.889 Y101.149 E11.36686
G1 X121.932 Y101.581 E11.43631
G1 X122.634 Y101.77 E11.46049
G1 X123.247 Y102.007 E11.48235
G1 X125.142 Y102.849 E11.55132
G1 X125.788 Y103.18 E11.57546
G1 X126.334 Y103.535 E11.59712
G1 X128.021 Y104.757 E11.6664
G1 X128.585 Y105.215 E11.69057
G1 X129.045 Y105.676 E11.71223
G1 X130.399 Y107.174 E11.77939
G1 X130.856 Y107.739 E11.80356
G1 X131.197 Y108.263 E11.82435
G1 X132.252 Y110.063 E11.89375
G1 X132.584 Y110.709 E11.9179
G1 X132.822 Y111.322 E11.93978
G1 X133.473 Y113.284 E12.00853
G1 X133.664 Y113.984 E12.03266
G1 X133.767 Y114.622 E12.05416
G1 X134 Y116.686 E12.12324
G1 X134.042 Y117.411 E12.1474
G1 X134.01 Y118.073 E12.16944
G1 X133.8 Y120.206 E12.24073
G1 X133.689 Y120.924 E12.26489
G1 X133.51 Y121.597 E12.28806
G1 X132.868 Y123.575 E12.35722
G1 X132.606 Y124.252 E12.38137
G1 X132.313 Y124.824 E12.40274
G1 X131.285 Y126.614 E12.4714
G1 X130.889 Y127.223 E12.49556
G1 X130.474 Y127.735 E12.51748
G1 X129.077 Y129.292 E12.58705
G1 X128.563 Y129.805 E12.61121
G1 X128.053 Y130.217 E12.63301
G1 X126.415 Y131.411 E12.70043
G1 X125.805 Y131.806 E12.7246
G1 X125.253 Y132.089 E12.74523
G1 X123.368 Y132.944 E12.81408
G1 X122.691 Y133.207 E12.83823
G1 X122.059 Y133.379 E12.86002
G1 X120.025 Y133.826 E12.92928
G1 X119.308 Y133.943 E12.95345
G1 X118.651 Y133.98 E12.97533
G1 X116.519 Y133.994 E13.04625
G1 X115.794 Y133.959 E13.07039
G1 X115.111 Y133.851 E13.09339
G1 X113.068 Y133.419 E13.16284
G1 X112.366 Y133.23 E13.18702
G1 X111.753 Y132.993 E13.20888
G1 X109.858 Y132.151 E13.27785
G1 X109.212 Y131.82 E13.30199
G1 X108.666 Y131.465 E13.32365
G1 X106.979 Y130.243 E13.39294
G1 X106.415 Y129.785 E13.4171
G1 X105.955 Y129.324 E13.43876
G1 X104.601 Y127.826 E13.50592
G1 X104.144 Y127.261 E13.53009
G1 X103.802 Y126.736 E13.55093
G1 X102.747 Y124.935 E13.62035
G1 X102.415 Y124.289 E13.64451
G1 X102.178 Y123.677 E13.66634
G1 X101.527 Y121.715 E13.73509
G1 X101.336 Y121.015 E13.75923
G1 X101.233 Y120.377 E13.78072
G1 X101 Y118.312 E13.84984
G1 X100.958 Y117.587 E13.87399
G1 X100.99 Y116.925 E13.89604
G1 X101.2 Y114.793 E13.96729
G1 X101.311 Y114.075 E13.99146
G1 X101.49 Y113.402 E14.01462
G1 X102.132 Y111.424 E14.08379
G1 X102.394 Y110.747 E14.10793
G1 X102.687 Y110.174 E14.12933
G1 X103.715 Y108.385 E14.19796
G1 X104.111 Y107.776 E14.22212
G1 X104.526 Y107.265 E14.24402
G1 X105.923 Y105.708 E14.31359
G0 F3600 X106.22 Y105.975
G1 F1050 X106.719 Y105.479 E14.33699
G1 X107.184 Y105.105 E14.35684
G1 X108.823 Y103.911 E14.42429
G1 X109.415 Y103.529 E14.44772
G1 X109.912 Y103.276 E14.46627
G1 X111.796 Y102.421 E14.53508
G1 X112.452 Y102.167 E14.55848
G1 X113.027 Y102.012 E14.57829
G1 X115.061 Y101.565 E14.64755
G1 X115.756 Y101.453 E14.67097
G1 X116.351 Y101.42 E14.69079
G1 X118.483 Y101.406 E14.7617
G1 X119.186 Y101.441 E14.78511
G1 X119.807 Y101.54 E14.80602
G1 X121.85 Y101.972 E14.87548
G1 X122.529 Y102.157 E14.89888
G1 X123.085 Y102.372 E14.91871
G1 X124.98 Y103.214 E14.98768
G1 X125.606 Y103.536 E15.01109
G1 X126.099 Y103.859 E15.0307
G1 X127.786 Y105.081 E15.09998
G1 X128.332 Y105.526 E15.12341
G1 X128.749 Y105.945 E15.14307
G1 X130.103 Y107.443 E15.21023
G1 X130.544 Y107.991 E15.23363
G1 X130.852 Y108.465 E15.25243
G1 X131.907 Y110.265 E15.32182
G1 X132.228 Y110.892 E15.34525
G1 X132.443 Y111.447 E15.36504
G1 X133.094 Y113.409 E15.4338
G1 X133.277 Y114.089 E15.45722
G1 X133.37 Y114.667 E15.47669
G1 X133.603 Y116.731 E15.54578
G1 X133.642 Y117.433 E15.56916
G1 X133.612 Y118.033 E15.58914
G1 X133.402 Y120.166 E15.66043
G1 X133.294 Y120.862 E15.68386
G1 X133.129 Y121.473 E15.70491
G1 X132.487 Y123.451 E15.77407
G1 X132.232 Y124.107 E15.79748
G1 X131.966 Y124.625 E15.81685
G1 X130.938 Y126.415 E15.88551
G1 X130.554 Y127.004 E15.90889
G1 X130.177 Y127.468 E15.92878
G1 X128.78 Y129.025 E15.99835
G1 X128.281 Y129.521 E16.02175
G1 X127.817 Y129.894 E16.04155
G1 X126.179 Y131.088 E16.10897
G1 X125.588 Y131.47 E16.13238
G1 X125.088 Y131.724 E16.15103
G1 X123.203 Y132.579 E16.21987
G1 X122.546 Y132.833 E16.2433
G1 X121.973 Y132.988 E16.26304
G1 X119.939 Y133.435 E16.33231
G1 X119.244 Y133.547 E16.35572
G1 X118.649 Y133.58 E16.37554
G1 X116.517 Y133.594 E16.44646
G1 X115.814 Y133.559 E16.46987
G1 X115.193 Y133.46 E16.49078
G1 X113.15 Y133.028 E16.56023
G1 X112.471 Y132.843 E16.58364
G1 X111.915 Y132.628 E16.60347
G1 X110.02 Y131.786 E16.67244
G1 X109.394 Y131.464 E16.69585
G1 X108.901 Y131.141 E16.71545
G1 X107.214 Y129.919 E16.78474
G1 X106.668 Y129.474 E16.80817
G1 X106.251 Y129.055 E16.82783
G1 X104.897 Y127.557 E16.89499
G1 X104.456 Y127.009 E16.91838
G1 X104.147 Y126.534 E16.93723
G1 X103.092 Y124.733 E17.00665
G1 X102.772 Y124.106 E17.03007
G1 X102.557 Y123.552 E17.04983
G1 X101.906 Y121.59 E17.11859
G1 X101.723 Y120.91 E17.14201
G1 X101.63 Y120.332 E17.16148
G1 X101.397 Y118.267 E17.2306
G1 X101.358 Y117.564 E17.25401
G1 X101.388 Y116.964 E17.274
G1 X101.598 Y114.832 E17.34525
G1 X101.707 Y114.137 E17.36865
G1 X101.871 Y113.526 E17.38969
G1 X102.513 Y111.548 E17.45886
G1 X102.768 Y110.892 E17.48227
G1 X103.034 Y110.373 E17.50166
G1 X104.062 Y108.584 E17.57029
G1 X104.447 Y107.995 E17.59369
G1 X104.823 Y107.532 E17.61353
G1 X106.22 Y105.975 E17.68311
G0 F3600 X106.518 Y106.243
G1 F1050 X107.002 Y105.763 E17.70578
G1 X107.42 Y105.428 E17.72359
G1 X109.059 Y104.234 E17.79104
G1 X109.632 Y103.866 E17.81369
G1 X110.077 Y103.64 E17.83029
G1 X111.961 Y102.785 E17.8991
G1 X112.597 Y102.541 E17.92176
G1 X113.113 Y102.402 E17.93953
G1 X115.147 Y101.955 E18.0088
G1 X115.82 Y101.848 E18.03146
G1 X116.354 Y101.82 E18.04925
G1 X118.486 Y101.806 E18.12016
G1 X119.166 Y101.842 E18.14281
G1 X119.724 Y101.931 E18.1616
G1 X121.767 Y102.363 E18.23106
G1 X122.424 Y102.543 E18.25371
G1 X122.922 Y102.738 E18.2715
G1 X124.817 Y103.58 E18.34047
G1 X125.422 Y103.892 E18.36311
G1 X125.864 Y104.183 E18.38071
G1 X127.551 Y105.405 E18.45
G1 X128.078 Y105.836 E18.47264
G1 X128.452 Y106.213 E18.4903
G1 X129.806 Y107.711 E18.55746
G1 X130.232 Y108.242 E18.58011
G1 X130.507 Y108.667 E18.59694
G1 X131.562 Y110.467 E18.66634
G1 X131.871 Y111.074 E18.68899
G1 X132.063 Y111.573 E18.70677
G1 X132.714 Y113.535 E18.77553
G1 X132.89 Y114.193 E18.79818
G1 X132.972 Y114.711 E18.81563
G1 X133.205 Y116.775 E18.88471
G1 X133.242 Y117.455 E18.90736
G1 X133.214 Y117.994 E18.92531
G1 X133.004 Y120.127 E18.9966
G1 X132.898 Y120.8 E19.01926
G1 X132.749 Y121.35 E19.03821
G1 X132.107 Y123.328 E19.10738
G1 X131.859 Y123.962 E19.13002
G1 X131.62 Y124.425 E19.14735
G1 X130.592 Y126.215 E19.21601
G1 X130.218 Y126.785 E19.23868
G1 X129.879 Y127.2 E19.2565
G1 X128.482 Y128.757 E19.32608
