;FLAVOR:Marlin
;TIME:4538
;Filament used: 2.01255m
;Layer height: 0.1
;Generated with Cura_SteamEngine master
M140 S60
M105
M190 S60
M104 S200
M105
M109 S200
M82 ;absolute extrusion mode
; Ender 3 Custom Start G-code
G28 ; Home all axes
G92 E0 ; Reset Extruder
G1 Z2.0 F3000 ; Move Z Axis up little to prevent scratching of Heat Bed
G1 X0.1 Y20 Z0.3 F5000.0 ; Move to start position
G1 X0.1 Y200.0 Z0.3 F1500.0 E15 ; Draw the first line
G1 X0.4 Y200.0 Z0.3 F5000.0 ; Move to side a little
G1 X0.4 Y20 Z0.3 F1500.0 E30 ; Draw the second line
G92 E0 ; Reset Extruder
G1 Z2.0 F3000 ; Move Z Axis up little to prevent scratching of Heat Bed
; End of custom start GCode
G92 E0
G1 F2400 E-5
;LAYER_COUNT:489
;LAYER:0
M107
M204 S5000
M205 X30 Y30
G0 F3600 X98.985 Y91.067 Z0.2
M204 S500
M205 X20 Y20
;TYPE:SKIRT
G1 F2400 E0
G1 F1800 X99.489 Y90.56 E0.02378
G1 X99.983 Y90.158 E0.04496
G1 X101.678 Y88.915 E0.11487
G1 X102.278 Y88.525 E0.13867
G1 X102.829 Y88.243 E0.15926
G1 X104.718 Y87.39 E0.2282
G1 X105.385 Y87.133 E0.25197
G1 X105.987 Y86.97 E0.27271
G1 X108.03 Y86.524 E0.34226
G1 X108.736 Y86.411 E0.36605
G1 X109.361 Y86.377 E0.38686
G1 X111.443 Y86.366 E0.45611
G1 X112.158 Y86.402 E0.47992
G1 X112.774 Y86.499 E0.50066
G1 X114.823 Y86.923 E0.57026
G1 X115.514 Y87.107 E0.59404
G1 X116.092 Y87.327 E0.61461
G1 X118.009 Y88.166 E0.68421
G1 X118.647 Y88.489 E0.70799
G1 X119.176 Y88.831 E0.72895
G1 X120.858 Y90.039 E0.79782
G1 X121.415 Y90.488 E0.82162
G1 X121.859 Y90.93 E0.84246
G1 X123.274 Y92.485 E0.91238
G1 X123.725 Y93.04 E0.93617
G1 X124.064 Y93.559 E0.95679
G1 X125.111 Y95.348 E1.02573
G1 X125.437 Y95.985 E1.04953
G1 X125.661 Y96.564 E1.07018
G1 X126.324 Y98.561 E1.14016
G1 X126.511 Y99.252 E1.16397
G1 X126.612 Y99.879 E1.1851
G1 X126.839 Y101.946 E1.25426
G1 X126.877 Y102.661 E1.27807
G1 X126.846 Y103.275 E1.29852
G1 X126.64 Y105.356 E1.36807
G1 X126.53 Y106.063 E1.39187
G1 X126.369 Y106.669 E1.41273
G1 X125.738 Y108.649 E1.48184
G1 X125.483 Y109.318 E1.50566
G1 X125.199 Y109.877 E1.52651
G1 X124.161 Y111.697 E1.5962
G1 X123.773 Y112.297 E1.61996
G1 X123.384 Y112.78 E1.64059
G1 X121.998 Y114.338 E1.70995
G1 X121.493 Y114.845 E1.73375
G1 X121.005 Y115.242 E1.75467
G1 X119.317 Y116.482 E1.82433
G1 X118.718 Y116.872 E1.84811
G1 X118.162 Y117.157 E1.86889
G1 X116.264 Y118.014 E1.93815
G1 X115.596 Y118.271 E1.96196
G1 X114.997 Y118.433 E1.9826
G1 X112.961 Y118.878 E2.05191
G1 X112.254 Y118.992 E2.07573
G1 X111.631 Y119.026 E2.09648
G1 X109.543 Y119.038 E2.16593
G1 X108.828 Y119.002 E2.18974
G1 X108.211 Y118.906 E2.21051
G1 X106.164 Y118.483 E2.28003
G1 X105.473 Y118.299 E2.30382
G1 X104.891 Y118.077 E2.32453
G1 X102.978 Y117.239 E2.394
G1 X102.34 Y116.916 E2.41778
G1 X101.813 Y116.575 E2.43866
G1 X100.117 Y115.357 E2.50811
G1 X99.56 Y114.908 E2.5319
G1 X99.115 Y114.464 E2.55281
G1 X97.714 Y112.923 E2.62208
G1 X97.263 Y112.368 E2.64587
G1 X96.926 Y111.852 E2.66637
G1 X95.873 Y110.054 E2.73567
G1 X95.547 Y109.418 E2.75944
G1 X95.321 Y108.834 E2.78027
G1 X94.66 Y106.84 E2.85014
G1 X94.473 Y106.149 E2.87395
G1 X94.373 Y105.526 E2.89493
G1 X94.146 Y103.463 E2.96396
G1 X94.108 Y102.749 E2.98774
G1 X94.139 Y102.131 E3.00832
G1 X94.346 Y100.044 E3.07808
G1 X94.457 Y99.338 E3.10185
G1 X94.617 Y98.732 E3.12269
G1 X95.25 Y96.746 E3.19202
G1 X95.505 Y96.078 E3.21581
G1 X95.79 Y95.517 E3.23673
G1 X96.825 Y93.704 E3.30617
G1 X97.214 Y93.104 E3.32995
G1 X97.6 Y92.625 E3.35041
G1 X98.985 Y91.067 E3.41975
M204 S5000
M205 X30 Y30
G0 F3600 X99.284 Y91.333
M204 S500
M205 X20 Y20
G1 F1800 X99.773 Y90.842 E3.4428
G1 X100.22 Y90.481 E3.46191
G1 X101.915 Y89.238 E3.53182
G1 X102.496 Y88.861 E3.55485
G1 X102.994 Y88.608 E3.57343
G1 X104.883 Y87.755 E3.64237
G1 X105.529 Y87.507 E3.66538
G1 X106.072 Y87.361 E3.68408
G1 X108.115 Y86.915 E3.75363
G1 X108.799 Y86.807 E3.77667
G1 X109.363 Y86.777 E3.79545
G1 X111.445 Y86.766 E3.8647
G1 X112.137 Y86.802 E3.88775
G1 X112.693 Y86.89 E3.90647
G1 X114.742 Y87.314 E3.97606
G1 X115.411 Y87.494 E3.99911
G1 X115.932 Y87.693 E4.01766
G1 X117.849 Y88.532 E4.08725
G1 X118.466 Y88.846 E4.11028
G1 X118.943 Y89.156 E4.1292
G1 X120.625 Y90.364 E4.19808
G1 X121.163 Y90.799 E4.22109
G1 X121.563 Y91.199 E4.2399
G1 X122.978 Y92.754 E4.30983
G1 X123.413 Y93.292 E4.33284
G1 X123.718 Y93.761 E4.35145
G1 X124.765 Y95.55 E4.42039
G1 X125.08 Y96.167 E4.44344
G1 X125.281 Y96.69 E4.46207
G1 X125.944 Y98.687 E4.53206
G1 X126.124 Y99.356 E4.5551
G1 X126.214 Y99.923 E4.57419
G1 X126.441 Y101.99 E4.64336
G1 X126.477 Y102.682 E4.6664
G1 X126.448 Y103.236 E4.68485
G1 X126.242 Y105.317 E4.75441
G1 X126.134 Y106.001 E4.77744
G1 X125.988 Y106.548 E4.79627
G1 X125.357 Y108.528 E4.86539
G1 X125.109 Y109.174 E4.8884
G1 X124.852 Y109.679 E4.90725
G1 X123.814 Y111.499 E4.97693
G1 X123.437 Y112.079 E4.99994
G1 X123.085 Y112.514 E5.01855
G1 X121.699 Y114.072 E5.08791
G1 X121.209 Y114.562 E5.11096
G1 X120.768 Y114.92 E5.12985
G1 X119.08 Y116.16 E5.19951
G1 X118.499 Y116.537 E5.22255
G1 X117.997 Y116.792 E5.24128
G1 X116.099 Y117.649 E5.31054
G1 X115.453 Y117.897 E5.33356
G1 X114.911 Y118.043 E5.35223
G1 X112.875 Y118.488 E5.42154
G1 X112.191 Y118.596 E5.44457
G1 X111.628 Y118.626 E5.46333
G1 X109.54 Y118.638 E5.53277
G1 X108.849 Y118.602 E5.55579
G1 X108.292 Y118.514 E5.57454
G1 X106.245 Y118.091 E5.64407
G1 X105.576 Y117.912 E5.6671
G1 X105.052 Y117.711 E5.68577
G1 X103.139 Y116.873 E5.75523
G1 X102.521 Y116.559 E5.77829
G1 X102.046 Y116.25 E5.79713
G1 X100.35 Y115.032 E5.86658
G1 X99.812 Y114.597 E5.88959
G1 X99.41 Y114.195 E5.9085
G1 X98.009 Y112.654 E5.97777
G1 X97.574 Y112.116 E6.00078
G1 X97.272 Y111.65 E6.01925
G1 X96.219 Y109.852 E6.08856
G1 X95.904 Y109.235 E6.1116
G1 X95.701 Y108.708 E6.13038
G1 X95.04 Y106.714 E6.20025
G1 X94.86 Y106.045 E6.22329
G1 X94.771 Y105.482 E6.24225
G1 X94.544 Y103.419 E6.31128
G1 X94.508 Y102.728 E6.33429
G1 X94.537 Y102.171 E6.35284
G1 X94.744 Y100.084 E6.4226
G1 X94.852 Y99.4 E6.44563
G1 X94.998 Y98.854 E6.46443
G1 X95.631 Y96.868 E6.53376
G1 X95.879 Y96.221 E6.5568
G1 X96.137 Y95.715 E6.57569
G1 X97.172 Y93.902 E6.64513
G1 X97.55 Y93.322 E6.66816
G1 X97.899 Y92.891 E6.6866
G1 X99.284 Y91.333 E6.75594
M204 S5000
M205 X30 Y30
G0 F3600 X99.583 Y91.598
M204 S500
M205 X20 Y20
G1 F1800 X100.056 Y91.126 E6.77816
G1 X100.456 Y90.803 E6.79526
G1 X102.151 Y89.56 E6.86517
G1 X102.714 Y89.197 E6.88745
G1 X103.158 Y88.972 E6.90401
G1 X105.047 Y88.119 E6.97294
G1 X105.672 Y87.881 E6.99519
G1 X106.158 Y87.752 E7.01191
G1 X108.201 Y87.306 E7.08146
G1 X108.862 Y87.202 E7.10372
G1 X109.365 Y87.177 E7.12047
G1 X111.447 Y87.166 E7.18972
G1 X112.115 Y87.203 E7.21197
G1 X112.612 Y87.282 E7.22871
G1 X114.661 Y87.706 E7.2983
G1 X115.307 Y87.881 E7.32056
G1 X115.771 Y88.06 E7.3371
G1 X117.688 Y88.899 E7.4067
G1 X118.284 Y89.203 E7.42895
G1 X118.71 Y89.481 E7.44587
G1 X120.392 Y90.689 E7.51475
G1 X120.911 Y91.111 E7.537
G1 X121.267 Y91.468 E7.55377
G1 X122.682 Y93.023 E7.62369
G1 X123.102 Y93.544 E7.64595
G1 X123.373 Y93.963 E7.66255
G1 X124.42 Y95.752 E7.73149
G1 X124.723 Y96.349 E7.75376
G1 X124.902 Y96.817 E7.77042
G1 X125.565 Y98.814 E7.84041
G1 X125.737 Y99.46 E7.86264
G1 X125.817 Y99.967 E7.87972
G1 X126.044 Y102.034 E7.94888
G1 X126.077 Y102.702 E7.97112
G1 X126.05 Y103.197 E7.98761
G1 X125.844 Y105.278 E8.05716
G1 X125.738 Y105.938 E8.0794
G1 X125.607 Y106.426 E8.0962
G1 X124.976 Y108.406 E8.16532
G1 X124.735 Y109.031 E8.1876
G1 X124.504 Y109.48 E8.20439
G1 X123.466 Y111.3 E8.27408
G1 X123.101 Y111.861 E8.29634
G1 X122.786 Y112.248 E8.31294
G1 X121.4 Y113.806 E8.38229
G1 X120.926 Y114.279 E8.40457
G1 X120.531 Y114.597 E8.42143
G1 X118.843 Y115.837 E8.4911
G1 X118.281 Y116.2 E8.51335
G1 X117.833 Y116.428 E8.53007
G1 X115.935 Y117.285 E8.59933
G1 X115.309 Y117.523 E8.62161
G1 X114.826 Y117.652 E8.63823
G1 X112.79 Y118.097 E8.70755
G1 X112.129 Y118.2 E8.7298
G1 X111.626 Y118.226 E8.74655
G1 X109.538 Y118.238 E8.816
G1 X108.87 Y118.202 E8.83825
G1 X108.373 Y118.122 E8.85499
G1 X106.326 Y117.699 E8.92452
G1 X105.68 Y117.525 E8.94677
G1 X105.212 Y117.344 E8.96346
G1 X103.299 Y116.506 E9.03292
G1 X102.703 Y116.202 E9.05517
G1 X102.279 Y115.926 E9.072
G1 X100.583 Y114.708 E9.14145
G1 X100.064 Y114.286 E9.1637
G1 X99.706 Y113.926 E9.18058
G1 X98.305 Y112.385 E9.24985
G1 X97.886 Y111.864 E9.27209
G1 X97.617 Y111.448 E9.28857
G1 X96.564 Y109.65 E9.35787
G1 X96.261 Y109.054 E9.38011
G1 X96.08 Y108.582 E9.39692
G1 X95.419 Y106.588 E9.46679
G1 X95.247 Y105.942 E9.48903
G1 X95.169 Y105.438 E9.50599
G1 X94.942 Y103.375 E9.57502
G1 X94.908 Y102.707 E9.59727
G1 X94.935 Y102.21 E9.61382
G1 X95.142 Y100.123 E9.68357
G1 X95.248 Y99.463 E9.70581
G1 X95.379 Y98.975 E9.72261
G1 X96.012 Y96.989 E9.79194
G1 X96.253 Y96.365 E9.81419
G1 X96.485 Y95.914 E9.83106
G1 X97.52 Y94.101 E9.90049
G1 X97.885 Y93.54 E9.92275
G1 X98.198 Y93.156 E9.93923
G1 X99.583 Y91.598 E10.00857
M204 S5000
M205 X30 Y30
G0 F3600 X99.882 Y91.864
M204 S500
M205 X20 Y20
G1 F1800 X100.339 Y91.41 E10.02999
G1 X100.693 Y91.126 E10.04509
G1 X102.388 Y89.883 E10.115
G1 X102.93 Y89.534 E10.13644
G1 X103.323 Y89.337 E10.15106
G1 X105.212 Y88.484 E10.22
G1 X105.815 Y88.255 E10.24145
G1 X106.243 Y88.143 E10.25616
G1 X108.286 Y87.697 E10.32571
G1 X108.923 Y87.598 E10.34716
G1 X109.368 Y87.577 E10.36197
G1 X111.45 Y87.566 E10.43122
G1 X112.093 Y87.603 E10.45264
G1 X112.531 Y87.674 E10.4674
G1 X114.58 Y88.098 E10.53699
G1 X115.202 Y88.267 E10.55843
G1 X115.611 Y88.426 E10.57303
G1 X117.528 Y89.265 E10.64263
G1 X118.101 Y89.56 E10.66406
G1 X118.476 Y89.805 E10.67896
G1 X120.158 Y91.013 E10.74784
G1 X120.658 Y91.421 E10.7693
G1 X120.971 Y91.737 E10.78409
G1 X122.386 Y93.292 E10.85402
G1 X122.789 Y93.795 E10.87546
G1 X123.028 Y94.165 E10.89011
G1 X124.075 Y95.954 E10.95905
G1 X124.365 Y96.53 E10.9805
G1 X124.522 Y96.943 E10.9952
G1 X125.185 Y98.94 E11.06518
G1 X125.35 Y99.563 E11.08662
G1 X125.419 Y100.01 E11.10166
G1 X125.646 Y102.077 E11.17082
G1 X125.676 Y102.721 E11.19227
G1 X125.652 Y103.157 E11.20679
G1 X125.446 Y105.238 E11.27634
G1 X125.343 Y105.875 E11.2978
G1 X125.225 Y106.305 E11.31263
G1 X124.594 Y108.285 E11.38175
G1 X124.361 Y108.886 E11.40319
G1 X124.157 Y109.282 E11.41801
G1 X123.119 Y111.102 E11.48769
G1 X122.766 Y111.641 E11.50912
G1 X122.487 Y111.982 E11.52378
G1 X121.101 Y113.54 E11.59313
G1 X120.644 Y113.994 E11.61456
G1 X120.295 Y114.275 E11.62946
G1 X118.607 Y115.515 E11.69913
G1 X118.064 Y115.864 E11.7206
G1 X117.668 Y116.063 E11.73534
G1 X115.77 Y116.92 E11.8046
G1 X115.167 Y117.149 E11.82605
G1 X114.74 Y117.261 E11.84074
G1 X112.704 Y117.706 E11.91005
G1 X112.067 Y117.804 E11.93149
G1 X111.624 Y117.826 E11.94624
G1 X109.536 Y117.838 E12.01569
G1 X108.892 Y117.802 E12.03714
G1 X108.454 Y117.73 E12.05191
G1 X106.407 Y117.307 E12.12143
G1 X105.785 Y117.138 E12.14287
G1 X105.373 Y116.978 E12.15757
G1 X103.46 Y116.14 E12.22703
G1 X102.886 Y115.845 E12.24849
G1 X102.513 Y115.601 E12.26332
G1 X100.817 Y114.383 E12.33277
G1 X100.317 Y113.975 E12.35423
G1 X100.002 Y113.657 E12.36912
G1 X98.601 Y112.116 E12.43839
G1 X98.198 Y111.613 E12.45983
G1 X97.962 Y111.246 E12.47434
G1 X96.909 Y109.448 E12.54364
G1 X96.618 Y108.872 E12.56511
G1 X96.46 Y108.456 E12.57991
G1 X95.799 Y106.462 E12.64978
G1 X95.635 Y105.839 E12.6712
G1 X95.566 Y105.395 E12.68615
G1 X95.339 Y103.332 E12.75518
G1 X95.309 Y102.688 E12.77662
G1 X95.333 Y102.25 E12.79121
G1 X95.54 Y100.163 E12.86096
G1 X95.644 Y99.526 E12.88243
G1 X95.761 Y99.097 E12.89722
G1 X96.394 Y97.111 E12.96655
G1 X96.627 Y96.51 E12.98799
G1 X96.832 Y96.112 E13.00288
G1 X97.867 Y94.299 E13.07231
G1 X98.221 Y93.76 E13.09376
G1 X98.497 Y93.422 E13.10828
G1 X99.882 Y91.864 E13.17761
M204 S5000
M205 X30 Y30
G1 F2400 E8.17761
;MESH:chicken.stl
G0 F3600 X107.07 Y92.612
G0 X107.593 Y93.784
G0 X113.367 Y93.86
G0 X113.397 Y93.765
M204 S500
M205 X20 Y20
;TYPE:WALL-INNER
G1 F2400 E13.17761
G1 F1800 X115.19 Y94.564 E13.2429
G1 X116.779 Y95.718 E13.30822
G1 X118.097 Y97.182 E13.37373
G1 X119.077 Y98.879 E13.43891
G1 X119.683 Y100.745 E13.50417
G1 X119.889 Y102.702 E13.56962
G1 X119.683 Y104.659 E13.63507
G1 X119.077 Y106.524 E13.70029
G1 X118.097 Y108.222 E13.7655
G1 X116.781 Y109.683 E13.8309
G1 X115.187 Y110.841 E13.89643
G1 X113.397 Y111.638 E13.9616
G1 X111.474 Y112.047 E14.02699
G1 X109.511 Y112.047 E14.09228
G1 X107.587 Y111.638 E14.1577
G1 X105.797 Y110.841 E14.22287
G1 X104.204 Y109.683 E14.28837
G1 X102.89 Y108.225 E14.35365
G1 X101.907 Y106.52 E14.41911
G1 X101.302 Y104.659 E14.4842
G1 X101.095 Y102.702 E14.54965
G1 X101.302 Y100.745 E14.6151
G1 X101.907 Y98.883 E14.68022
G1 X102.89 Y97.179 E14.74565
G1 X104.204 Y95.72 E14.81096
G1 X105.797 Y94.563 E14.87644
G1 X107.587 Y93.765 E14.94162
G1 X109.511 Y93.357 E15.00704
G1 X111.474 Y93.357 E15.07233
G1 X113.397 Y93.765 E15.13771
M204 S5000
M205 X30 Y30
G0 F3600 X113.521 Y93.383
M204 S500
M205 X20 Y20
;TYPE:WALL-OUTER
G1 F1800 X115.393 Y94.217 E15.20587
G1 X117.047 Y95.418 E15.27386
G1 X118.421 Y96.944 E15.34216
G1 X119.444 Y98.716 E15.41021
G1 X120.077 Y100.664 E15.47834
G1 X120.291 Y102.702 E15.54649
G1 X120.077 Y104.74 E15.61465
G1 X119.444 Y106.687 E15.68274
G1 X118.421 Y108.46 E15.75083
G1 X117.049 Y109.983 E15.819
G1 X115.39 Y111.188 E15.8872
G1 X113.521 Y112.02 E15.95525
G1 X111.515 Y112.447 E16.02346
G1 X109.47 Y112.447 E16.09148
G1 X107.463 Y112.02 E16.15972
G1 X105.594 Y111.188 E16.22777
G1 X103.936 Y109.983 E16.29594
G1 X102.563 Y108.46 E16.36414
G1 X101.541 Y106.687 E16.43221
G1 X100.908 Y104.74 E16.5003
G1 X100.693 Y102.702 E16.56846
G1 X100.908 Y100.664 E16.63662
G1 X101.541 Y98.716 E16.70475
G1 X102.563 Y96.944 E16.77278
G1 X103.936 Y95.42 E16.84101
G1 X105.594 Y94.216 E16.90916
G1 X107.463 Y93.383 E16.97722
G1 X109.47 Y92.957 E17.04546
G1 X111.515 Y92.957 E17.11348
G1 X113.521 Y93.383 E17.18168
M204 S5000
M205 X30 Y30
G0 F3600 X113.703 Y93.464
G0 X113.276 Y94.139
M204 S500
M205 X20 Y20
;TYPE:SKIN
G1 F1800 X114.992 Y94.903 E17.24416
G1 X116.518 Y96.012 E17.3069
G1 X117.78 Y97.412 E17.36959
G1 X118.718 Y99.039 E17.43205
G1 X119.299 Y100.827 E17.49458
G1 X119.497 Y102.702 E17.55729
G1 X119.299 Y104.577 E17.62
G1 X118.718 Y106.364 E17.6825
G1 X117.78 Y107.992 E17.74499
G1 X116.52 Y109.389 E17.80757
G1 X114.989 Y110.502 E17.87052
G1 X113.277 Y111.264 E17.93285
G1 X111.43 Y111.657 E17.99565
G1 X109.555 Y111.657 E18.05802
G1 X107.707 Y111.264 E18.12086
G1 X105.995 Y110.502 E18.18318
G1 X104.464 Y109.389 E18.24614
G1 X103.207 Y107.995 E18.30857
G1 X102.266 Y106.36 E18.37131
G1 X101.686 Y104.577 E18.43367
G1 X101.487 Y102.702 E18.49639
G1 X101.686 Y100.827 E18.5591
G1 X102.266 Y99.043 E18.62149
G1 X103.207 Y97.409 E18.68421
G1 X104.465 Y96.014 E18.74669
G1 X105.995 Y94.902 E18.80959
G1 X107.709 Y94.139 E18.872
G1 X109.553 Y93.747 E18.9347
G1 X111.431 Y93.747 E18.99716
G1 X113.276 Y94.139 E19.0599
M204 S5000
M205 X30 Y30
G0 F3600 X114.827 Y95.028
M204 S500
M205 X20 Y20
G1 F1800 X118.062 Y98.263 E19.21206
G1 X118.132 Y98.333
M204 S5000
M205 X30 Y30
G0 F3600 X118.65 Y99.417
M204 S500
M205 X20 Y20
G1 F1800 X113.807 Y94.574 E19.43986
G1 X113.737 Y94.504
M204 S5000
M205 X30 Y30
G0 F3600 X112.915 Y94.247
M204 S500
M205 X20 Y20
G1 F1800 X118.924 Y100.256 E19.7225
G1 X118.994 Y100.326
M204 S5000
M205 X30 Y30
G0 F3600 X119.139 Y101.037
M204 S500
M205 X20 Y20
G1 F1800 X112.196 Y94.094 E20.04908
M204 S5000
M205 X30 Y30
G0 F3600 X111.478 Y93.941
M204 S500
M205 X20 Y20
G1 F1800 X119.206 Y101.67 E20.41261
M204 S5000
M205 X30 Y30
G0 F3600 X119.273 Y102.302
M204 S500
M205 X20 Y20
G1 F1800 X110.897 Y93.927 E20.80656
M204 S5000
M205 X30 Y30
G0 F3600 X110.331 Y93.927
M204 S500
M205 X20 Y20
G1 F1800 X119.295 Y102.89 E21.22818
M204 S5000
M205 X30 Y30
G0 F3600 X119.241 Y103.402
M204 S500
M205 X20 Y20
G1 F1800 X109.766 Y93.927 E21.67386
M204 S5000
M205 X30 Y30
G0 F3600 X109.265 Y93.992
M204 S500
M205 X20 Y20
G1 F1800 X119.187 Y103.914 E22.14056
M204 S5000
M205 X30 Y30
G0 F3600 X119.133 Y104.425
M204 S500
M205 X20 Y20
G1 F1800 X108.799 Y94.091 E22.62664
M204 S5000
M205 X30 Y30
G0 F3600 X108.333 Y94.19
M204 S500
M205 X20 Y20
G1 F1800 X119.013 Y104.871 E23.12901
M204 S5000
M205 X30 Y30
