;FLAVOR:Marlin
;TIME:5226
;Filament used: 2.35302m
;Layer height: 0.1
;Generated with Cura_SteamEngine master
M140 S60
M105
M190 S60
M104 S200
M105
M109 S200
M82 ;absolute extrusion mode
; Ender 3 Custom Start G-code
G28 ; Home all axes
G92 E0 ; Reset Extruder
G1 Z2.0 F3000 ; Move Z Axis up little to prevent scratching of Heat Bed
G1 X0.1 Y20 Z0.3 F5000.0 ; Move to start position
G1 X0.1 Y200.0 Z0.3 F1500.0 E15 ; Draw the first line
G1 X0.4 Y200.0 Z0.3 F5000.0 ; Move to side a little
G1 X0.4 Y20 Z0.3 F1500.0 E30 ; Draw the second line
G92 E0 ; Reset Extruder
G1 Z2.0 F3000 ; Move Z Axis up little to prevent scratching of Heat Bed
; End of custom start GCode
G92 E0
G1 F2400 E-5
;LAYER_COUNT:489
;LAYER:0
M107
M204 S5000
M205 X30 Y30
G0 F3600 X100.661 Y101.634 Z0.2
M204 S500
M205 X20 Y20
;TYPE:SKIRT
G1 F2400 E0
G1 F1800 X101.15 Y101.238 E0.02093
G1 X103.681 Y99.386 E0.12524
G1 X104.281 Y98.997 E0.14902
G1 X104.831 Y98.716 E0.16957
G1 X107.688 Y97.429 E0.27379
G1 X108.356 Y97.172 E0.29759
G1 X108.965 Y97.008 E0.31857
G1 X112.029 Y96.346 E0.42283
G1 X112.736 Y96.235 E0.44663
G1 X113.358 Y96.202 E0.46735
G1 X116.483 Y96.191 E0.57129
G1 X117.198 Y96.228 E0.5951
G1 X117.813 Y96.326 E0.61581
G1 X120.886 Y96.967 E0.72022
G1 X121.577 Y97.152 E0.74401
G1 X122.158 Y97.375 E0.76471
G1 X125.024 Y98.637 E0.86887
G1 X125.662 Y98.961 E0.89267
G1 X126.188 Y99.303 E0.91353
G1 X128.73 Y101.136 E1.01777
G1 X129.286 Y101.586 E1.04156
G1 X129.729 Y102.029 E1.0624
G1 X131.833 Y104.35 E1.16659
G1 X132.283 Y104.906 E1.19038
G1 X132.621 Y105.426 E1.21101
G1 X134.195 Y108.127 E1.31499
G1 X134.52 Y108.764 E1.33877
G1 X134.744 Y109.348 E1.35958
G1 X135.726 Y112.331 E1.46403
G1 X135.911 Y113.022 E1.48782
G1 X136.01 Y113.64 E1.50864
G1 X136.348 Y116.749 E1.61265
G1 X136.385 Y117.464 E1.63647
G1 X136.352 Y118.085 E1.65715
G1 X136.036 Y121.208 E1.76155
G1 X135.925 Y121.915 E1.78535
G1 X135.763 Y122.52 E1.80619
G1 X134.808 Y125.496 E1.91014
G1 X134.552 Y126.163 E1.9339
G1 X134.268 Y126.72 E1.9547
G1 X132.708 Y129.445 E2.05913
G1 X132.319 Y130.045 E2.08291
G1 X131.927 Y130.528 E2.1036
G1 X129.844 Y132.86 E2.2076
G1 X129.339 Y133.366 E2.23138
G1 X128.85 Y133.762 E2.25231
G1 X126.319 Y135.614 E2.35662
G1 X125.719 Y136.003 E2.3804
G1 X125.169 Y136.284 E2.40095
G1 X122.312 Y137.571 E2.50517
G1 X121.644 Y137.828 E2.52897
G1 X121.035 Y137.992 E2.54995
G1 X117.971 Y138.654 E2.65421
G1 X117.264 Y138.765 E2.67801
G1 X116.642 Y138.798 E2.69873
G1 X113.517 Y138.809 E2.80267
G1 X112.802 Y138.772 E2.82648
G1 X112.187 Y138.674 E2.84719
G1 X109.114 Y138.033 E2.9516
G1 X108.423 Y137.848 E2.97539
G1 X107.842 Y137.625 E2.99609
G1 X104.976 Y136.363 E3.10025
G1 X104.338 Y136.039 E3.12405
G1 X103.812 Y135.697 E3.14492
G1 X101.27 Y133.864 E3.24915
G1 X100.714 Y133.414 E3.27294
G1 X100.271 Y132.971 E3.29378
G1 X98.167 Y130.65 E3.39797
G1 X97.717 Y130.094 E3.42176
G1 X97.379 Y129.574 E3.44239
G1 X95.805 Y126.873 E3.54637
G1 X95.48 Y126.236 E3.57015
G1 X95.256 Y125.652 E3.59096
G1 X94.274 Y122.669 E3.69541
G1 X94.089 Y121.978 E3.7192
G1 X93.99 Y121.36 E3.74002
G1 X93.652 Y118.251 E3.84403
G1 X93.615 Y117.536 E3.86785
G1 X93.647 Y116.915 E3.88853
G1 X93.963 Y113.791 E3.99296
G1 X94.075 Y113.084 E4.01677
G1 X94.237 Y112.479 E4.0376
G1 X95.192 Y109.504 E4.14152
G1 X95.449 Y108.836 E4.16533
G1 X95.732 Y108.28 E4.18608
G1 X97.292 Y105.555 E4.29052
G1 X97.681 Y104.955 E4.3143
G1 X98.073 Y104.472 E4.33499
G1 X100.156 Y102.14 E4.43899
G1 X100.661 Y101.634 E4.46276
M204 S5000
M205 X30 Y30
G0 F3600 X100.945 Y101.917
M204 S500
M205 X20 Y20
G1 F1800 X101.386 Y101.561 E4.48162
G1 X103.917 Y99.709 E4.58593
G1 X104.498 Y99.333 E4.60894
G1 X104.996 Y99.08 E4.62752
G1 X107.853 Y97.793 E4.73174
G1 X108.499 Y97.546 E4.75475
G1 X109.05 Y97.399 E4.77371
G1 X112.114 Y96.737 E4.87797
G1 X112.798 Y96.63 E4.901
G1 X113.36 Y96.602 E4.91972
G1 X116.485 Y96.591 E5.02365
G1 X117.176 Y96.629 E5.04667
G1 X117.731 Y96.717 E5.06536
G1 X120.804 Y97.358 E5.16977
G1 X121.473 Y97.539 E5.19282
G1 X121.997 Y97.741 E5.2115
G1 X124.863 Y99.003 E5.31566
G1 X125.48 Y99.318 E5.3387
G1 X125.954 Y99.627 E5.35752
G1 X128.496 Y101.46 E5.46175
G1 X129.034 Y101.897 E5.4848
G1 X129.432 Y102.297 E5.50357
G1 X131.536 Y104.618 E5.60777
G1 X131.971 Y105.157 E5.6308
G1 X132.275 Y105.627 E5.64942
G1 X133.849 Y108.328 E5.7534
G1 X134.163 Y108.946 E5.77645
G1 X134.364 Y109.473 E5.79521
G1 X135.346 Y112.456 E5.89967
G1 X135.524 Y113.125 E5.92269
G1 X135.612 Y113.684 E5.94151
G1 X135.95 Y116.793 E6.04553
G1 X135.985 Y117.484 E6.06854
G1 X135.955 Y118.045 E6.08723
G1 X135.639 Y121.168 E6.19163
G1 X135.529 Y121.852 E6.21467
G1 X135.382 Y122.397 E6.23344
G1 X134.427 Y125.373 E6.3374
G1 X134.178 Y126.019 E6.36042
G1 X133.921 Y126.521 E6.37918
G1 X132.361 Y129.246 E6.48362
G1 X131.983 Y129.826 E6.50664
G1 X131.629 Y130.262 E6.52532
G1 X129.546 Y132.594 E6.62932
G1 X129.055 Y133.083 E6.65237
G1 X128.614 Y133.439 E6.67122
G1 X126.083 Y135.291 E6.77553
G1 X125.502 Y135.667 E6.79855
G1 X125.004 Y135.92 E6.81713
G1 X122.147 Y137.207 E6.92135
G1 X121.501 Y137.454 E6.94435
G1 X120.95 Y137.601 E6.96332
G1 X117.886 Y138.263 E7.06758
G1 X117.202 Y138.37 E7.09061
G1 X116.64 Y138.398 E7.10932
G1 X113.515 Y138.409 E7.21326
G1 X112.824 Y138.371 E7.23628
G1 X112.269 Y138.283 E7.25497
G1 X109.196 Y137.642 E7.35938
G1 X108.527 Y137.461 E7.38243
G1 X108.003 Y137.259 E7.4011
G1 X105.137 Y135.997 E7.50526
G1 X104.52 Y135.682 E7.5283
G1 X104.046 Y135.373 E7.54712
G1 X101.504 Y133.54 E7.65136
G1 X100.966 Y133.103 E7.67441
G1 X100.568 Y132.703 E7.69318
G1 X98.464 Y130.382 E7.79737
G1 X98.029 Y129.843 E7.82041
G1 X97.725 Y129.373 E7.83903
G1 X96.151 Y126.672 E7.943
G1 X95.837 Y126.054 E7.96606
G1 X95.636 Y125.527 E7.98482
G1 X94.654 Y122.544 E8.08927
G1 X94.476 Y121.875 E8.1123
G1 X94.388 Y121.316 E8.13112
G1 X94.05 Y118.207 E8.23513
G1 X94.015 Y117.516 E8.25815
G1 X94.045 Y116.955 E8.27683
G1 X94.361 Y113.831 E8.38127
G1 X94.471 Y113.147 E8.40431
G1 X94.618 Y112.601 E8.42311
G1 X95.573 Y109.626 E8.52704
G1 X95.823 Y108.98 E8.55008
G1 X96.079 Y108.479 E8.56879
G1 X97.639 Y105.754 E8.67322
G1 X98.017 Y105.174 E8.69625
G1 X98.371 Y104.738 E8.71493
G1 X100.454 Y102.406 E8.81893
G1 X100.945 Y101.917 E8.84198
M204 S5000
M205 X30 Y30
G0 F3600 X101.227 Y102.201
M204 S500
M205 X20 Y20
G1 F1800 X101.622 Y101.884 E8.85882
G1 X104.153 Y100.032 E8.96313
G1 X104.716 Y99.67 E8.98539
G1 X105.16 Y99.445 E9.00195
G1 X108.017 Y98.158 E9.10617
G1 X108.642 Y97.92 E9.12841
G1 X109.134 Y97.79 E9.14534
G1 X112.198 Y97.128 E9.2496
G1 X112.86 Y97.026 E9.27188
G1 X113.361 Y97.002 E9.28856
G1 X116.486 Y96.991 E9.3925
G1 X117.154 Y97.029 E9.41475
G1 X117.649 Y97.109 E9.43143
G1 X120.722 Y97.75 E9.53584
G1 X121.368 Y97.925 E9.5581
G1 X121.836 Y98.107 E9.5748
G1 X124.702 Y99.369 E9.67896
G1 X125.297 Y99.675 E9.70121
G1 X125.72 Y99.952 E9.71803
G1 X128.262 Y101.785 E9.82226
G1 X128.781 Y102.208 E9.84453
G1 X129.136 Y102.566 E9.8613
G1 X131.24 Y104.887 E9.9655
G1 X131.659 Y105.409 E9.98776
G1 X131.929 Y105.828 E10.00434
G1 X133.503 Y108.529 E10.10831
G1 X133.805 Y109.127 E10.1306
G1 X133.984 Y109.598 E10.14735
G1 X134.966 Y112.581 E10.25181
G1 X135.137 Y113.228 E10.27407
G1 X135.214 Y113.727 E10.29086
G1 X135.552 Y116.836 E10.39487
G1 X135.585 Y117.504 E10.41712
G1 X135.557 Y118.005 E10.43381
G1 X135.241 Y121.128 E10.53821
G1 X135.134 Y121.788 E10.56045
G1 X135.001 Y122.275 E10.57724
G1 X134.046 Y125.251 E10.68119
G1 X133.804 Y125.875 E10.70345
G1 X133.574 Y126.322 E10.72017
G1 X132.014 Y129.047 E10.82461
G1 X131.647 Y129.607 E10.84688
G1 X131.33 Y129.996 E10.86357
G1 X129.247 Y132.328 E10.96757
G1 X128.773 Y132.799 E10.98979
G1 X128.378 Y133.116 E11.00664
G1 X125.847 Y134.968 E11.11095
G1 X125.284 Y135.33 E11.13321
G1 X124.84 Y135.555 E11.14976
G1 X121.983 Y136.842 E11.25399
G1 X121.358 Y137.08 E11.27623
G1 X120.866 Y137.21 E11.29315
G1 X117.802 Y137.872 E11.39742
G1 X117.14 Y137.974 E11.41969
G1 X116.639 Y137.998 E11.43638
G1 X113.514 Y138.009 E11.54031
G1 X112.846 Y137.971 E11.56257
G1 X112.351 Y137.891 E11.57925
G1 X109.278 Y137.25 E11.68365
G1 X108.632 Y137.075 E11.70591
G1 X108.164 Y136.893 E11.72262
G1 X105.298 Y135.631 E11.82677
G1 X104.703 Y135.325 E11.84902
G1 X104.28 Y135.048 E11.86584
G1 X101.738 Y133.215 E11.97008
G1 X101.219 Y132.792 E11.99235
G1 X100.864 Y132.434 E12.00912
G1 X98.76 Y130.113 E12.11331
G1 X98.341 Y129.591 E12.13557
G1 X98.071 Y129.172 E12.15215
G1 X96.497 Y126.471 E12.25613
G1 X96.195 Y125.873 E12.27841
G1 X96.016 Y125.402 E12.29517
G1 X95.034 Y122.419 E12.39962
G1 X94.863 Y121.772 E12.42188
G1 X94.786 Y121.273 E12.43867
G1 X94.448 Y118.164 E12.54269
G1 X94.415 Y117.496 E12.56493
G1 X94.443 Y116.995 E12.58162
G1 X94.759 Y113.871 E12.68606
G1 X94.866 Y113.211 E12.7083
G1 X94.999 Y112.723 E12.72512
G1 X95.954 Y109.748 E12.82904
G1 X96.196 Y109.125 E12.85127
G1 X96.426 Y108.678 E12.86799
G1 X97.986 Y105.953 E12.97243
G1 X98.353 Y105.393 E12.99469
G1 X98.67 Y105.004 E13.01138
G1 X100.753 Y102.672 E13.11538
G1 X101.227 Y102.201 E13.13761
M204 S5000
M205 X30 Y30
G0 F3600 X101.509 Y102.486
M204 S500
M205 X20 Y20
G1 F1800 X101.858 Y102.206 E13.15249
G1 X104.389 Y100.354 E13.2568
G1 X104.932 Y100.007 E13.27823
G1 X105.324 Y99.81 E13.29283
G1 X108.181 Y98.523 E13.39705
G1 X108.784 Y98.295 E13.41849
G1 X109.219 Y98.181 E13.43345
G1 X112.283 Y97.519 E13.53771
G1 X112.92 Y97.422 E13.55914
G1 X113.363 Y97.402 E13.57389
G1 X116.488 Y97.391 E13.67782
G1 X117.131 Y97.429 E13.69925
G1 X117.568 Y97.501 E13.71398
G1 X120.641 Y98.142 E13.81839
G1 X121.263 Y98.312 E13.83983
G1 X121.675 Y98.473 E13.85455
G1 X124.541 Y99.735 E13.9587
G1 X125.113 Y100.031 E13.98012
G1 X125.486 Y100.276 E13.99497
G1 X128.028 Y102.109 E14.0992
G1 X128.527 Y102.518 E14.12066
G1 X128.84 Y102.835 E14.13548
G1 X130.944 Y105.156 E14.23967
G1 X131.346 Y105.659 E14.26109
G1 X131.584 Y106.03 E14.27575
G1 X133.158 Y108.731 E14.37973
G1 X133.447 Y109.307 E14.40116
G1 X133.604 Y109.723 E14.41595
G1 X134.586 Y112.706 E14.5204
G1 X134.749 Y113.33 E14.54185
G1 X134.817 Y113.77 E14.55666
G1 X135.155 Y116.879 E14.66067
G1 X135.184 Y117.523 E14.68212
G1 X135.159 Y117.964 E14.69681
G1 X134.843 Y121.087 E14.80121
G1 X134.738 Y121.724 E14.82268
G1 X134.62 Y122.153 E14.83748
G1 X133.665 Y125.129 E14.94143
G1 X133.431 Y125.729 E14.96285
G1 X133.227 Y126.123 E14.97761
G1 X131.667 Y128.848 E15.08205
G1 X131.312 Y129.387 E15.10351
G1 X131.032 Y129.729 E15.11821
G1 X128.949 Y132.061 E15.22221
G1 X128.491 Y132.514 E15.24364
G1 X128.142 Y132.794 E15.25852
G1 X125.611 Y134.646 E15.36283
G1 X125.068 Y134.993 E15.38426
G1 X124.676 Y135.19 E15.39886
G1 X121.819 Y136.477 E15.50308
G1 X121.216 Y136.705 E15.52452
G1 X120.781 Y136.819 E15.53947
G1 X117.717 Y137.481 E15.64373
G1 X117.08 Y137.578 E15.66517
G1 X116.637 Y137.598 E15.67991
G1 X113.512 Y137.609 E15.78385
G1 X112.869 Y137.571 E15.80528
G1 X112.432 Y137.499 E15.82001
G1 X109.359 Y136.858 E15.92442
G1 X108.737 Y136.688 E15.94586
G1 X108.325 Y136.527 E15.96057
G1 X105.459 Y135.265 E16.06473
G1 X104.887 Y134.969 E16.08615
G1 X104.514 Y134.724 E16.10099
G1 X101.972 Y132.891 E16.20523
G1 X101.473 Y132.482 E16.22669
G1 X101.16 Y132.165 E16.24151
G1 X99.056 Y129.844 E16.3457
G1 X98.654 Y129.341 E16.36712
G1 X98.416 Y128.97 E16.38178
G1 X96.842 Y126.269 E16.48575
G1 X96.553 Y125.693 E16.50719
G1 X96.396 Y125.277 E16.52198
G1 X95.414 Y122.294 E16.62643
G1 X95.251 Y121.67 E16.64788
G1 X95.183 Y121.23 E16.66269
G1 X94.845 Y118.121 E16.7667
G1 X94.816 Y117.477 E16.78814
G1 X94.841 Y117.036 E16.80284
G1 X95.157 Y113.912 E16.90727
G1 X95.262 Y113.276 E16.92871
G1 X95.38 Y112.846 E16.94354
G1 X96.335 Y109.871 E17.04746
G1 X96.57 Y109.27 E17.06893
G1 X96.773 Y108.877 E17.08364
G1 X98.333 Y106.152 E17.18807
G1 X98.688 Y105.613 E17.20954
G1 X98.968 Y105.271 E17.22424
G1 X101.051 Y102.939 E17.32824
G1 X101.509 Y102.486 E17.34967
M204 S5000
M205 X30 Y30
G1 F2400 E12.34967
;MESH:chicken.stl
G0 F3600 X107.061 Y104.009
G0 X107.815 Y105.048
G0 X119.42 Y103.903
G0 X119.45 Y103.808
M204 S500
M205 X20 Y20
;TYPE:WALL-INNER
G1 F2400 E17.34967
G1 F1800 X122.195 Y105.031 E17.44962
G1 X124.634 Y106.803 E17.54989
G1 X126.65 Y109.041 E17.65007
G1 X128.152 Y111.644 E17.75003
G1 X129.081 Y114.503 E17.85001
G1 X129.397 Y117.5 E17.95024
G1 X129.081 Y120.497 E18.05048
G1 X128.152 Y123.356 E18.15046
G1 X126.65 Y125.959 E18.25042
G1 X124.634 Y128.197 E18.3506
G1 X122.195 Y129.969 E18.45087
G1 X119.45 Y131.192 E18.55082
G1 X116.504 Y131.818 E18.651
G1 X113.496 Y131.818 E18.75104
G1 X110.55 Y131.192 E18.85121
G1 X107.805 Y129.969 E18.95116
G1 X105.366 Y128.197 E19.05144
G1 X103.35 Y125.959 E19.15162
G1 X101.848 Y123.356 E19.25157
G1 X100.919 Y120.497 E19.35156
G1 X100.603 Y117.5 E19.45179
G1 X100.919 Y114.503 E19.55203
G1 X101.848 Y111.644 E19.65201
G1 X103.35 Y109.041 E19.75197
G1 X105.366 Y106.803 E19.85215
G1 X107.805 Y105.031 E19.95242
G1 X110.55 Y103.808 E20.05237
G1 X113.496 Y103.182 E20.15254
G1 X116.504 Y103.182 E20.25259
G1 X119.45 Y103.808 E20.35276
M204 S5000
M205 X30 Y30
G0 F3600 X119.574 Y103.426
M204 S500
M205 X20 Y20
;TYPE:WALL-OUTER
G1 F1800 X122.398 Y104.684 E20.45559
G1 X124.902 Y106.503 E20.55853
G1 X126.974 Y108.803 E20.66149
G1 X128.519 Y111.481 E20.76432
G1 X129.475 Y114.422 E20.86718
G1 X129.799 Y117.5 E20.97012
G1 X129.475 Y120.578 E21.07306
G1 X128.519 Y123.519 E21.17591
G1 X126.974 Y126.197 E21.27874
G1 X124.902 Y128.497 E21.38171
G1 X122.398 Y130.316 E21.48464
G1 X119.574 Y131.574 E21.58747
G1 X116.545 Y132.218 E21.69047
G1 X113.455 Y132.218 E21.79324
G1 X110.426 Y131.574 E21.89624
G1 X107.602 Y130.316 E21.99906
G1 X105.098 Y128.497 E22.102
G1 X103.026 Y126.197 E22.20496
G1 X101.481 Y123.519 E22.30779
G1 X100.525 Y120.578 E22.41065
G1 X100.201 Y117.5 E22.51359
G1 X100.525 Y114.422 E22.61653
G1 X101.481 Y111.481 E22.71939
G1 X103.026 Y108.803 E22.82222
G1 X105.098 Y106.503 E22.92518
G1 X107.602 Y104.684 E23.02812
G1 X110.426 Y103.426 E23.13094
G1 X113.455 Y102.782 E23.23394
G1 X116.545 Y102.782 E23.33671
G1 X119.574 Y103.426 E23.43971
M204 S5000
M205 X30 Y30
G0 F3600 X119.756 Y103.507
G0 X119.329 Y104.182
M204 S500
M205 X20 Y20
;TYPE:SKIN
G1 F1800 X121.997 Y105.37 E23.53685
G1 X124.373 Y107.097 E23.63454
G1 X126.333 Y109.271 E23.7319
G1 X127.793 Y111.804 E23.82914
G1 X128.697 Y114.585 E23.9264
G1 X129.005 Y117.5 E24.02389
G1 X128.697 Y120.415 E24.12139
G1 X127.793 Y123.196 E24.21865
G1 X126.333 Y125.729 E24.31589
G1 X124.373 Y127.903 E24.41324
G1 X121.997 Y129.63 E24.51094
G1 X119.329 Y130.818 E24.60808
G1 X116.461 Y131.428 E24.7056
G1 X113.539 Y131.428 E24.80279
G1 X110.671 Y130.818 E24.90031
G1 X108.003 Y129.63 E24.99745
G1 X105.627 Y127.903 E25.09514
G1 X103.667 Y125.729 E25.1925
G1 X102.207 Y123.196 E25.28974
G1 X101.303 Y120.415 E25.387
G1 X100.995 Y117.5 E25.48449
G1 X101.303 Y114.585 E25.58199
G1 X102.207 Y111.804 E25.67925
G1 X103.667 Y109.271 E25.77649
G1 X105.627 Y107.097 E25.87384
G1 X108.003 Y105.37 E25.97154
G1 X110.671 Y104.182 E26.06868
G1 X113.539 Y103.572 E26.1662
G1 X116.461 Y103.572 E26.26339
G1 X119.329 Y104.182 E26.36091
M204 S5000
M205 X30 Y30
G0 F3600 X124.075 Y107.104
M204 S500
M205 X20 Y20
G1 F1800 X124.693 Y107.722 E26.38998
G1 X124.763 Y107.792
M204 S5000
M205 X30 Y30
G0 F3600 X126.735 Y110.33
M204 S500
M205 X20 Y20
G1 F1800 X122.007 Y105.602 E26.61237
G1 X121.937 Y105.532
M204 S5000
M205 X30 Y30
G0 F3600 X120.934 Y105.095
M204 S500
M205 X20 Y20
G1 F1800 X127.504 Y111.664 E26.92138
G1 X127.574 Y111.734
M204 S5000
M205 X30 Y30
G0 F3600 X127.856 Y112.582
M204 S500
M205 X20 Y20
G1 F1800 X119.913 Y104.64 E27.29497
G1 X119.843 Y104.57
M204 S5000
M205 X30 Y30
G0 F3600 X119.006 Y104.298
M204 S500
M205 X20 Y20
G1 F1800 X128.129 Y113.421 E27.72409
G1 X128.199 Y113.491
M204 S5000
M205 X30 Y30
G0 F3600 X128.402 Y114.259
M204 S500
M205 X20 Y20
G1 F1800 X118.287 Y104.145 E28.19984
M204 S5000
M205 X30 Y30
G0 F3600 X117.569 Y103.992
M204 S500
M205 X20 Y20
G1 F1800 X128.557 Y114.981 E28.71671
M204 S5000
M205 X30 Y30
G0 F3600 X128.624 Y115.614
M204 S500
M205 X20 Y20
G1 F1800 X116.85 Y103.84 E29.27052
M204 S5000
M205 X30 Y30
G0 F3600 X116.197 Y103.752
M204 S500
