;FLAVOR:Marlin
;TIME:10357
;Filament used: 2.41495m
;Layer height: 0.1
;Generated with Cura_SteamEngine master
M140 S60
M105
M190 S60
M104 S230
M105
M109 S230
M82 ;absolute extrusion mode
; Ender 3 Custom Start G-code
G28 ; Home all axes
G92 E0 ; Reset Extruder
G1 Z2.0 F3000 ; Move Z Axis up little to prevent scratching of Heat Bed
G1 X0.1 Y20 Z0.3 F5000.0 ; Move to start position
G1 X0.1 Y200.0 Z0.3 F1500.0 E15 ; Draw the first line
G1 X0.4 Y200.0 Z0.3 F5000.0 ; Move to side a little
G1 X0.4 Y20 Z0.3 F1500.0 E30 ; Draw the second line
G92 E0 ; Reset Extruder
G1 Z2.0 F3000 ; Move Z Axis up little to prevent scratching of Heat Bed
; End of custom start GCode
G92 E0
G1 F2400 E-5
;LAYER_COUNT:489
;LAYER:0
M107
M204 S5000
M205 X30 Y30
G0 F3600 X99.723 Y100.575 Z0.2
M204 S500
M205 X20 Y20
;TYPE:SKIRT
G1 F2400 E0
G1 F600 X100.378 Y100.043 E0.02807
G1 X102.918 Y98.198 E0.13248
G1 X103.58 Y97.767 E0.15876
G1 X104.329 Y97.384 E0.18674
G1 X107.19 Y96.11 E0.2909
G1 X107.927 Y95.825 E0.31718
G1 X108.741 Y95.606 E0.34522
G1 X111.812 Y94.953 E0.44964
G1 X112.591 Y94.828 E0.47589
G1 X113.434 Y94.782 E0.50397
G1 X116.566 Y94.782 E0.60814
G1 X117.355 Y94.822 E0.63441
G1 X118.188 Y94.953 E0.66246
G1 X121.259 Y95.606 E0.76688
G1 X122.022 Y95.809 E0.79314
G1 X122.81 Y96.11 E0.8212
G1 X125.671 Y97.384 E0.92536
G1 X126.375 Y97.741 E0.95162
G1 X127.082 Y98.198 E0.97962
G1 X129.622 Y100.043 E1.08403
G1 X130.237 Y100.539 E1.11031
G1 X130.834 Y101.135 E1.13837
G1 X132.932 Y103.465 E1.24265
G1 X133.43 Y104.078 E1.26892
G1 X133.891 Y104.785 E1.29699
G1 X135.457 Y107.498 E1.40118
G1 X135.817 Y108.201 E1.42745
G1 X136.119 Y108.984 E1.45536
G1 X137.089 Y111.966 E1.55966
G1 X137.295 Y112.729 E1.58595
G1 X137.429 Y113.563 E1.61404
G1 X137.757 Y116.682 E1.71835
G1 X137.8 Y117.471 E1.74463
G1 X137.757 Y118.313 E1.77267
G1 X137.429 Y121.435 E1.87708
G1 X137.307 Y122.215 E1.90334
G1 X137.089 Y123.033 E1.9315
G1 X136.119 Y126.015 E2.0358
G1 X135.837 Y126.752 E2.06204
G1 X135.458 Y127.5 E2.08993
G1 X133.892 Y130.214 E2.19415
G1 X133.463 Y130.877 E2.22041
G1 X132.932 Y131.535 E2.24854
G1 X130.834 Y133.865 E2.35282
G1 X130.277 Y134.425 E2.37909
G1 X129.622 Y134.957 E2.40716
G1 X127.083 Y136.801 E2.51152
G1 X126.421 Y137.232 E2.5378
G1 X125.673 Y137.615 E2.56575
G1 X122.811 Y138.89 E2.66996
G1 X122.074 Y139.174 E2.69623
G1 X121.259 Y139.394 E2.7243
G1 X118.188 Y140.047 E2.82873
G1 X117.409 Y140.172 E2.85497
G1 X116.566 Y140.218 E2.88305
G1 X113.434 Y140.218 E2.98722
G1 X112.645 Y140.178 E3.0135
G1 X111.812 Y140.047 E3.04154
G1 X108.741 Y139.394 E3.14597
G1 X107.978 Y139.191 E3.17223
G1 X107.189 Y138.89 E3.20032
G1 X104.327 Y137.615 E3.30453
G1 X103.623 Y137.258 E3.33078
G1 X102.917 Y136.801 E3.35875
G1 X100.378 Y134.957 E3.46312
G1 X99.764 Y134.461 E3.48937
G1 X99.166 Y133.865 E3.51745
G1 X97.068 Y131.535 E3.62174
G1 X96.57 Y130.922 E3.64801
G1 X96.108 Y130.214 E3.67612
G1 X94.542 Y127.5 E3.78034
G1 X94.182 Y126.797 E3.80661
G1 X93.881 Y126.015 E3.83448
G1 X92.911 Y123.033 E3.93878
G1 X92.705 Y122.27 E3.96506
G1 X92.571 Y121.436 E3.99316
G1 X92.243 Y118.318 E4.09744
G1 X92.2 Y117.529 E4.12372
G1 X92.243 Y116.687 E4.15176
G1 X92.571 Y113.564 E4.2562
G1 X92.693 Y112.784 E4.28246
G1 X92.911 Y111.966 E4.31062
G1 X93.881 Y108.984 E4.41491
G1 X94.163 Y108.247 E4.44116
G1 X94.543 Y107.498 E4.46909
G1 X96.109 Y104.785 E4.57328
G1 X96.538 Y104.122 E4.59955
G1 X97.068 Y103.465 E4.62762
G1 X99.166 Y101.135 E4.73191
G1 X99.723 Y100.575 E4.75818
M204 S5000
M205 X30 Y30
G0 F3600 X100.006 Y100.858
M204 S500
M205 X20 Y20
G1 F600 X100.613 Y100.367 E4.78414
G1 X103.153 Y98.522 E4.88856
G1 X103.798 Y98.103 E4.91414
G1 X104.492 Y97.749 E4.94005
G1 X107.353 Y96.475 E5.04422
G1 X108.071 Y96.199 E5.0698
G1 X108.824 Y95.997 E5.09573
G1 X111.895 Y95.344 E5.20016
G1 X112.655 Y95.223 E5.22575
G1 X113.434 Y95.182 E5.2517
G1 X116.566 Y95.182 E5.35587
G1 X117.334 Y95.222 E5.38145
G1 X118.105 Y95.344 E5.40741
G1 X121.176 Y95.997 E5.51184
G1 X121.919 Y96.196 E5.53742
G1 X122.647 Y96.475 E5.56335
G1 X125.508 Y97.749 E5.66752
G1 X126.194 Y98.098 E5.69311
G1 X126.847 Y98.522 E5.71901
G1 X129.387 Y100.367 E5.82343
G1 X129.985 Y100.851 E5.84901
G1 X130.537 Y101.402 E5.87495
G1 X132.635 Y103.732 E5.97924
G1 X133.119 Y104.33 E6.00483
G1 X133.545 Y104.985 E6.03081
G1 X135.111 Y107.698 E6.135
G1 X135.46 Y108.383 E6.16057
G1 X135.739 Y109.108 E6.18641
G1 X136.709 Y112.09 E6.29071
G1 X136.909 Y112.833 E6.3163
G1 X137.031 Y113.605 E6.34229
G1 X137.359 Y116.724 E6.4466
G1 X137.4 Y117.492 E6.47218
G1 X137.359 Y118.271 E6.49813
G1 X137.031 Y121.393 E6.60254
G1 X136.911 Y122.153 E6.62813
G1 X136.709 Y122.909 E6.65416
G1 X135.739 Y125.891 E6.75845
G1 X135.463 Y126.609 E6.78404
G1 X135.112 Y127.3 E6.80982
G1 X133.546 Y130.014 E6.91403
G1 X133.127 Y130.66 E6.93964
G1 X132.635 Y131.268 E6.96566
G1 X130.537 Y133.598 E7.06994
G1 X129.994 Y134.142 E7.0955
G1 X129.387 Y134.634 E7.12149
G1 X126.848 Y136.478 E7.22586
G1 X126.203 Y136.897 E7.25144
G1 X125.51 Y137.25 E7.27731
G1 X122.648 Y138.525 E7.38152
G1 X121.93 Y138.801 E7.4071
G1 X121.176 Y139.003 E7.43307
G1 X118.105 Y139.656 E7.53749
G1 X117.345 Y139.777 E7.56309
G1 X116.566 Y139.818 E7.58903
G1 X113.434 Y139.818 E7.6932
G1 X112.666 Y139.778 E7.71878
G1 X111.895 Y139.656 E7.74474
G1 X108.824 Y139.003 E7.84917
G1 X108.081 Y138.804 E7.87475
G1 X107.352 Y138.525 E7.90072
G1 X104.49 Y137.25 E8.00492
G1 X103.804 Y136.9 E8.03054
G1 X103.152 Y136.478 E8.05637
G1 X100.613 Y134.634 E8.16074
G1 X100.015 Y134.15 E8.18633
G1 X99.463 Y133.598 E8.21229
G1 X97.365 Y131.268 E8.31657
G1 X96.881 Y130.67 E8.34216
G1 X96.454 Y130.014 E8.3682
G1 X94.888 Y127.3 E8.47241
G1 X94.539 Y126.615 E8.49798
G1 X94.261 Y125.891 E8.52378
G1 X93.291 Y122.909 E8.62807
G1 X93.091 Y122.166 E8.65367
G1 X92.969 Y121.394 E8.67966
G1 X92.641 Y118.276 E8.78394
G1 X92.6 Y117.508 E8.80952
G1 X92.64 Y116.729 E8.83546
G1 X92.968 Y113.606 E8.93991
G1 X93.088 Y112.846 E8.9655
G1 X93.291 Y112.09 E8.99153
G1 X94.261 Y109.108 E9.09583
G1 X94.537 Y108.39 E9.12141
G1 X94.889 Y107.698 E9.14724
G1 X96.455 Y104.985 E9.25142
G1 X96.874 Y104.339 E9.27703
G1 X97.365 Y103.732 E9.303
G1 X99.463 Y101.402 E9.40728
G1 X100.006 Y100.858 E9.43285
M204 S5000
M205 X30 Y30
G0 F3600 X100.29 Y101.142
M204 S500
M205 X20 Y20
G1 F600 X100.848 Y100.69 E9.45673
G1 X103.388 Y98.845 E9.56115
G1 X104.016 Y98.439 E9.58602
G1 X104.654 Y98.114 E9.60984
G1 X107.515 Y96.84 E9.714
G1 X108.214 Y96.573 E9.73889
G1 X108.907 Y96.388 E9.76274
G1 X111.978 Y95.735 E9.86717
G1 X112.717 Y95.619 E9.89205
G1 X113.434 Y95.582 E9.91593
G1 X116.566 Y95.582 E10.0201
G1 X117.313 Y95.622 E10.04498
G1 X118.022 Y95.735 E10.06886
G1 X121.093 Y96.388 E10.17329
G1 X121.815 Y96.583 E10.19816
G1 X122.485 Y96.84 E10.22203
G1 X125.346 Y98.114 E10.32619
G1 X126.012 Y98.455 E10.35108
G1 X126.612 Y98.845 E10.37488
G1 X129.152 Y100.69 E10.4793
G1 X129.733 Y101.162 E10.50419
G1 X130.24 Y101.67 E10.52806
G1 X132.338 Y104 E10.63235
G1 X132.808 Y104.582 E10.65723
G1 X133.199 Y105.185 E10.68113
G1 X134.765 Y107.898 E10.78532
G1 X135.103 Y108.565 E10.81019
G1 X135.359 Y109.232 E10.83395
G1 X136.329 Y112.214 E10.93825
G1 X136.522 Y112.936 E10.96311
G1 X136.634 Y113.647 E10.98705
G1 X136.962 Y116.766 E11.09136
G1 X137 Y117.513 E11.11623
G1 X136.962 Y118.229 E11.14008
G1 X136.634 Y121.351 E11.24449
G1 X136.516 Y122.09 E11.26938
G1 X136.329 Y122.785 E11.29332
G1 X135.359 Y125.767 E11.39762
G1 X135.09 Y126.465 E11.4225
G1 X134.765 Y127.1 E11.44622
G1 X133.199 Y129.814 E11.55044
G1 X132.791 Y130.441 E11.57532
G1 X132.338 Y131 E11.59925
G1 X130.24 Y133.33 E11.70353
G1 X129.71 Y133.858 E11.72842
G1 X129.151 Y134.31 E11.75233
G1 X126.612 Y136.154 E11.85669
G1 X125.985 Y136.56 E11.88154
G1 X125.348 Y136.884 E11.90531
G1 X122.486 Y138.159 E12.00952
G1 X121.787 Y138.427 E12.03442
G1 X121.093 Y138.612 E12.05831
G1 X118.022 Y139.265 E12.16273
G1 X117.283 Y139.381 E12.18761
G1 X116.566 Y139.418 E12.21149
G1 X113.434 Y139.418 E12.31566
G1 X112.687 Y139.378 E12.34054
G1 X111.978 Y139.265 E12.36442
G1 X108.907 Y138.612 E12.46885
G1 X108.185 Y138.417 E12.49372
G1 X107.514 Y138.159 E12.51763
G1 X104.652 Y136.884 E12.62184
G1 X103.986 Y136.544 E12.64671
G1 X103.388 Y136.154 E12.67046
G1 X100.849 Y134.31 E12.77483
G1 X100.268 Y133.839 E12.7997
G1 X99.76 Y133.33 E12.82362
G1 X97.662 Y131 E12.9279
G1 X97.192 Y130.418 E12.95278
G1 X96.801 Y129.814 E12.97672
G1 X95.235 Y127.1 E13.08093
G1 X94.896 Y126.433 E13.10582
G1 X94.641 Y125.767 E13.12954
G1 X93.671 Y122.785 E13.23383
G1 X93.478 Y122.063 E13.25869
G1 X93.366 Y121.352 E13.28263
G1 X93.038 Y118.234 E13.38691
G1 X93 Y117.487 E13.41179
G1 X93.038 Y116.771 E13.43563
G1 X93.366 Y113.648 E13.54008
G1 X93.484 Y112.909 E13.56497
G1 X93.671 Y112.214 E13.58891
G1 X94.641 Y109.232 E13.6932
G1 X94.91 Y108.534 E13.71808
G1 X95.235 Y107.898 E13.74184
G1 X96.801 Y105.185 E13.84603
G1 X97.21 Y104.558 E13.87092
G1 X97.662 Y104 E13.89481
G1 X99.76 Y101.67 E13.99909
G1 X100.29 Y101.142 E14.02397
M204 S5000
M205 X30 Y30
G0 F3600 X100.572 Y101.425
M204 S500
M205 X20 Y20
G1 F600 X101.083 Y101.014 E14.04578
G1 X103.623 Y99.169 E14.1502
G1 X104.233 Y98.775 E14.17435
G1 X104.817 Y98.48 E14.19611
G1 X107.678 Y97.206 E14.30028
G1 X108.357 Y96.947 E14.32445
G1 X108.99 Y96.779 E14.34623
G1 X112.061 Y96.126 E14.45066
G1 X112.779 Y96.015 E14.47482
G1 X113.434 Y95.982 E14.49664
G1 X116.566 Y95.982 E14.60081
G1 X117.291 Y96.022 E14.62496
G1 X117.939 Y96.126 E14.64679
G1 X121.01 Y96.779 E14.75121
G1 X121.711 Y96.969 E14.77537
G1 X122.322 Y97.206 E14.79717
G1 X125.183 Y98.48 E14.90133
G1 X125.829 Y98.811 E14.92547
G1 X126.377 Y99.169 E14.94724
G1 X128.917 Y101.014 E15.05166
G1 X129.48 Y101.473 E15.07582
G1 X129.943 Y101.938 E15.09764
G1 X132.041 Y104.268 E15.20193
G1 X132.496 Y104.833 E15.22606
G1 X132.852 Y105.385 E15.2479
G1 X134.418 Y108.098 E15.35209
G1 X134.746 Y108.746 E15.37625
G1 X134.978 Y109.355 E15.39792
G1 X135.948 Y112.337 E15.50222
G1 X136.135 Y113.039 E15.52638
G1 X136.236 Y113.689 E15.54826
G1 X136.564 Y116.808 E15.65257
G1 X136.6 Y117.533 E15.67671
G1 X136.564 Y118.188 E15.69853
G1 X136.236 Y121.31 E15.80294
G1 X136.12 Y122.027 E15.8271
G1 X135.948 Y122.662 E15.84898
G1 X134.978 Y125.644 E15.95328
G1 X134.716 Y126.321 E15.97742
G1 X134.419 Y126.901 E15.9991
G1 X132.853 Y129.615 E16.10331
G1 X132.456 Y130.223 E16.12746
G1 X132.041 Y130.732 E16.14931
G1 X129.943 Y133.062 E16.25359
G1 X129.428 Y133.575 E16.27777
G1 X128.916 Y133.986 E16.2996
G1 X126.377 Y135.83 E16.40397
G1 X125.767 Y136.224 E16.42813
G1 X125.185 Y136.519 E16.44983
G1 X122.323 Y137.794 E16.55404
G1 X121.644 Y138.052 E16.5782
G1 X121.01 Y138.221 E16.60002
G1 X117.939 Y138.874 E16.70444
G1 X117.221 Y138.985 E16.72861
G1 X116.566 Y139.018 E16.75042
G1 X113.434 Y139.018 E16.85459
G1 X112.709 Y138.978 E16.87874
G1 X112.061 Y138.874 E16.90057
G1 X108.99 Y138.221 E17.005
G1 X108.289 Y138.031 E17.02915
G1 X107.677 Y137.794 E17.05098
G1 X104.815 Y136.519 E17.15519
G1 X104.169 Y136.187 E17.17935
G1 X103.623 Y135.83 E17.20105
G1 X101.084 Y133.986 E17.30542
G1 X100.52 Y133.528 E17.32958
G1 X100.057 Y133.062 E17.35143
G1 X97.959 Y130.732 E17.45571
G1 X97.504 Y130.167 E17.47984
G1 X97.147 Y129.615 E17.5017
G1 X95.581 Y126.901 E17.60592
G1 X95.254 Y126.252 E17.63009
G1 X95.022 Y125.644 E17.65174
G1 X94.052 Y122.662 E17.75603
G1 X93.865 Y121.96 E17.7802
G1 X93.764 Y121.31 E17.80207
G1 X93.436 Y118.192 E17.90635
G1 X93.4 Y117.467 E17.9305
G1 X93.436 Y116.813 E17.95228
G1 X93.764 Y113.69 E18.05672
G1 X93.88 Y112.972 E18.08091
G1 X94.052 Y112.337 E18.1028
G1 X95.022 Y109.355 E18.20709
G1 X95.284 Y108.678 E18.23124
G1 X95.582 Y108.098 E18.25292
G1 X97.148 Y105.385 E18.35711
G1 X97.545 Y104.776 E18.38129
G1 X97.959 Y104.268 E18.40309
G1 X100.057 Y101.938 E18.50737
G1 X100.572 Y101.425 E18.53155
M204 S5000
M205 X30 Y30
G0 F3600 X100.855 Y101.71
M204 S500
M205 X20 Y20
G1 F600 X101.318 Y101.338 E18.5513
G1 X103.858 Y99.493 E18.65572
G1 X104.45 Y99.112 E18.67913
G1 X104.98 Y98.845 E18.69887
G1 X107.841 Y97.571 E18.80304
G1 X108.499 Y97.322 E18.82644
G1 X109.073 Y97.171 E18.84618
G1 X112.144 Y96.518 E18.9506
G1 X112.84 Y96.41 E18.97403
G1 X113.434 Y96.382 E18.99381
G1 X116.566 Y96.382 E19.09798
G1 X117.269 Y96.422 E19.1214
G1 X117.856 Y96.518 E19.14118
G1 X120.927 Y97.171 E19.24561
G1 X121.606 Y97.356 E19.26901
G1 X122.159 Y97.571 E19.28875
G1 X125.02 Y98.845 E19.39291
G1 X125.646 Y99.168 E19.41634
G1 X126.142 Y99.493 E19.43607
G1 X128.682 Y101.338 E19.54048
G1 X129.227 Y101.783 E19.56388
G1 X129.645 Y102.205 E19.58364
G1 X131.743 Y104.535 E19.68792
G1 X132.184 Y105.084 E19.71134
G1 X132.506 Y105.585 E19.73115
G1 X134.072 Y108.298 E19.83534
G1 X134.388 Y108.926 E19.85872
G1 X134.598 Y109.479 E19.8784
G1 X135.568 Y112.461 E19.98269
G1 X135.747 Y113.142 E20.00611
G1 X135.838 Y113.731 E20.02594
G1 X136.166 Y116.85 E20.13025
G1 X136.2 Y117.553 E20.15365
G1 X136.166 Y118.146 E20.17341
G1 X135.838 Y121.268 E20.27782
G1 X135.725 Y121.963 E20.30124
G1 X135.568 Y122.538 E20.32106
G1 X134.598 Y125.52 E20.42536
G1 X134.342 Y126.176 E20.44878
G1 X134.072 Y126.701 E20.46842
G1 X132.506 Y129.415 E20.57263
G1 X132.12 Y130.003 E20.59603
G1 X131.743 Y130.465 E20.61586
G1 X129.645 Y132.795 E20.72014
G1 X129.145 Y133.29 E20.74355
G1 X128.681 Y133.663 E20.76335
G1 X126.142 Y135.507 E20.86772
G1 X125.55 Y135.887 E20.89111
G1 X125.022 Y136.153 E20.91078
G1 X122.16 Y137.428 E21.01499
G1 X121.502 Y137.678 E21.0384
G1 X120.927 Y137.829 E21.05817
G1 X117.856 Y138.482 E21.1626
G1 X117.16 Y138.59 E21.18602
G1 X116.566 Y138.618 E21.2058
G1 X113.434 Y138.618 E21.30997
G1 X112.731 Y138.578 E21.33339
G1 X112.144 Y138.482 E21.35317
G1 X109.073 Y137.829 E21.4576
G1 X108.394 Y137.644 E21.48101
G1 X107.84 Y137.428 E21.50078
G1 X104.978 Y136.153 E21.60499
G1 X104.352 Y135.831 E21.62841
G1 X103.858 Y135.507 E21.64806
G1 X101.319 Y133.663 E21.75243
G1 X100.773 Y133.217 E21.77587
G1 X100.355 Y132.795 E21.79563
G1 X98.257 Y130.465 E21.89991
G1 X97.816 Y129.916 E21.92333
G1 X97.494 Y129.415 E21.94314
G1 X95.928 Y126.701 E22.04736
G1 X95.611 Y126.072 E22.07079
G1 X95.402 Y125.52 E22.09042
G1 X94.432 Y122.538 E22.19472
G1 X94.253 Y121.857 E22.21813
G1 X94.162 Y121.269 E22.23792
G1 X93.834 Y118.151 E22.3422
G1 X93.8 Y117.447 E22.36564
G1 X93.834 Y116.854 E22.3854
G1 X94.162 Y113.731 E22.48984
G1 X94.275 Y113.037 E22.51323
G1 X94.432 Y112.461 E22.53309
G1 X95.402 Y109.479 E22.63738
G1 X95.658 Y108.823 E22.6608
G1 X95.928 Y108.298 E22.68044
G1 X97.494 Y105.585 E22.78463
G1 X97.88 Y104.996 E22.80805
G1 X98.257 Y104.535 E22.82786
G1 X100.355 Y102.205 E22.93214
G1 X100.855 Y101.71 E22.95554
M204 S5000
M205 X30 Y30
G0 F3600 X101.136 Y101.995
M204 S500
M205 X20 Y20
G1 F600 X101.553 Y101.661 E22.97331
G1 X104.093 Y99.816 E23.07773
G1 X104.667 Y99.449 E23.10039
G1 X105.143 Y99.211 E23.11809
G1 X108.004 Y97.937 E23.22225
G1 X108.641 Y97.697 E23.24489
G1 X109.157 Y97.562 E23.26263
G1 X112.228 Y96.909 E23.36706
G1 X112.901 Y96.807 E23.3897
G1 X113.434 Y96.782 E23.40745
G1 X116.566 Y96.782 E23.51162
G1 X117.246 Y96.822 E23.53427
G1 X117.772 Y96.909 E23.552
G1 X120.843 Y97.562 E23.65643
G1 X121.5 Y97.742 E23.67909
G1 X121.996 Y97.937 E23.69681
G1 X124.857 Y99.211 E23.80098
G1 X125.462 Y99.524 E23.82363
G1 X125.907 Y99.816 E23.84134
G1 X128.447 Y101.661 E23.94575
G1 X128.973 Y102.093 E23.96839
G1 X129.348 Y102.473 E23.98615
G1 X131.446 Y104.803 E24.09043
G1 X131.871 Y105.335 E24.11308
G1 X132.159 Y105.784 E24.13082
G1 X133.725 Y108.497 E24.23501
G1 X134.03 Y109.106 E24.25766
G1 X134.218 Y109.603 E24.27534
G1 X135.188 Y112.585 E24.37963
G1 X135.36 Y113.244 E24.40229
G1 X135.44 Y113.772 E24.42005
G1 X135.768 Y116.891 E24.52436
G1 X135.8 Y117.572 E24.54703
G1 X135.768 Y118.104 E24.56476
G1 X135.44 Y121.226 E24.66917
G1 X135.329 Y121.898 E24.69182
G1 X135.188 Y122.414 E24.70961
G1 X134.218 Y125.396 E24.81391
G1 X133.969 Y126.03 E24.83657
G1 X133.726 Y126.501 E24.85419
G1 X132.16 Y129.215 E24.95841
G1 X131.785 Y129.783 E24.98105
G1 X131.446 Y130.197 E24.99885
G1 X129.348 Y132.527 E25.10313
G1 X128.864 Y133.005 E25.12575
G1 X128.446 Y133.339 E25.14355
